; generated by PrusaSlicer 2.5.0+win64 on 2023-02-07 at 15:57:32 UTC

; 

; external perimeters extrusion width = 0.45mm
; perimeters extrusion width = 0.45mm
; infill extrusion width = 0.45mm
; solid infill extrusion width = 0.45mm
; top infill extrusion width = 0.40mm
; first layer extrusion width = 0.42mm

M107 ; disable fan
;TYPE:Custom
; Initial setups
G90 ; use absolute coordinates
M83 ; extruder relative mode
M220 S100 ; reset speed factor to 100%
M221 S100 ; reset extrusion rate to 100%

; Set the heating
M190 S75 ; wait for bed to heat up
M104 S210 ; start nozzle heating but don't wait

; Home
G1 Z3 F3000 ; move z up little to prevent scratching of surface
G28 ; home all axes
G1 X3 Y3 F5000 ; move to corner of the bed to avoid ooze over centre

; Wait for final heating
M109 S210 ; wait for the nozzle to heat up
M190 S75 ; wait for the bed to heat up

; Return to prime position, Prime line routine
G92 E0 ; Reset Extruder
G1 Z3 F3000 ; move z up little to prevent scratching of surface
G1 X10 Y.5 Z0.25 F5000.0 ; Move to start position
G1 X100 Y.5 Z0.25 F1500.0 E15 ; Draw the first line
G1 X100 Y.2 Z0.25 F5000.0 ; Move to side a little
G1 X10 Y.2 Z0.25 F1500.0 E30 ; Draw the second line
G92 E0 ; Reset Extruder
M221 S95
G21 ; set units to millimeters
G90 ; use absolute coordinates
M83 ; use relative distances for extrusion
; Filament gcode
M107 ; disable fan
;LAYER_CHANGE
;Z:0.3
;HEIGHT:0.3
;BEFORE_LAYER_CHANGE
;0.3
G92 E0
G1 E-5 F2100 ; retract
G1 Z.1 F7800 ; lift Z
G1 Z.3 ; move to next layer (0)
;AFTER_LAYER_CHANGE
;0.3
G1 Z.4 ; lift Z
G1 X75.873 Y101.135 ; move to first skirt point
G1 Z.3 ; restore layer Z
G1 E5 F2100 ;  ; unretract
M204 S500 ; adjust acceleration
;TYPE:Skirt/Brim
;WIDTH:0.42
G1 F1200
G1 X78.948 Y100.341 E.14086 ; skirt
G1 X143.948 Y100.341 E2.88306 ; skirt
G1 X146.159 Y100.738 E.09962 ; skirt
G1 X148.093 Y101.879 E.09962 ; skirt
G1 X149.51 Y103.622 E.09962 ; skirt
G1 X150.304 Y106.697 E.14086 ; skirt
G1 X150.304 Y112.844 E.27264 ; skirt
G1 X149.907 Y115.054 E.09962 ; skirt
G1 X148.766 Y116.989 E.09962 ; skirt
G1 X147.023 Y118.406 E.09962 ; skirt
G1 X143.948 Y119.199 E.14086 ; skirt
G1 X78.948 Y119.199 E2.88306 ; skirt
G1 X76.737 Y118.802 E.09962 ; skirt
G1 X74.803 Y117.661 E.09962 ; skirt
G1 X73.386 Y115.919 E.09962 ; skirt
G1 X72.592 Y112.844 E.14086 ; skirt
G1 X72.592 Y106.697 E.27264 ; skirt
G1 X72.989 Y104.486 E.09962 ; skirt
G1 X74.13 Y102.552 E.09962 ; skirt
G1 X75.826 Y101.173 E.09696 ; skirt
M204 S1000 ; adjust acceleration
; printing object led holder.stl id:0 copy 0
G1 E-2.5 F2100 ; retract
;WIPE_START
G1 F6240
G1 X78.948 Y100.341 E-1.03282 ; wipe and retract
G1 X83.146 Y100.341 E-1.34218 ; wipe and retract
;WIPE_END
G1 E-.125 F2100 ; retract
G1 Z.4 F7800 ; lift Z
G1 X79.869 Y107.618 ; move to first perimeter point
G1 Z.3 ; restore layer Z
G1 E5 F2100 ;  ; unretract
M204 S500 ; adjust acceleration
;TYPE:Perimeter
;WIDTH:0.42
G1 F1200
G1 X143.027 Y107.618 E2.80134 ; perimeter
G1 X143.027 Y111.922 E.19092 ; perimeter
G1 X79.869 Y111.922 E2.80134 ; perimeter
G1 X79.869 Y107.678 E.18825 ; perimeter
M204 S1000 ; adjust acceleration
G1 X79.514 Y107.262 F7800 ; move to first perimeter point
M204 S500 ; adjust acceleration
G1 F1200
G1 X143.382 Y107.262 E2.83288 ; perimeter
G1 X143.382 Y112.278 E.22246 ; perimeter
G1 X79.514 Y112.278 E2.83288 ; perimeter
G1 X79.514 Y107.322 E.2198 ; perimeter
M204 S1000 ; adjust acceleration
G1 X79.158 Y106.907 F7800 ; move to first perimeter point
M204 S500 ; adjust acceleration
;TYPE:External perimeter
G1 F1200
G1 X143.738 Y106.907 E2.86443 ; perimeter
G1 X143.738 Y112.634 E.25401 ; perimeter
G1 X79.158 Y112.634 E2.86443 ; perimeter
G1 X79.158 Y106.967 E.25135 ; perimeter
M204 S1000 ; adjust acceleration
G1 X79.558 Y106.919 F7800 ; move inwards before travel
G1 E-2.5 F2100 ; retract
;WIPE_START
G1 F6240
G1 X86.587 Y106.96 E-2.375 ; wipe and retract
;WIPE_END
G1 E-.125 F2100 ; retract
G1 Z.4 F7800 ; lift Z
G1 X142.92 Y108.446 ; move to first infill point
G1 Z.3 ; restore layer Z
G1 E5 F2100 ;  ; unretract
M204 S500 ; adjust acceleration
;TYPE:Solid infill
;WIDTH:0.421157
G1 F1200
G1 X142.359 Y107.885 E.03532 ; infill
G1 X141.854 Y107.885 E.02245 ; infill
G1 X142.76 Y108.791 E.05701 ; infill
G1 X142.76 Y109.295 E.02245 ; infill
G1 X141.35 Y107.885 E.08876 ; infill
G1 X140.845 Y107.885 E.02245 ; infill
G1 X142.76 Y109.8 E.12051 ; infill
G1 X142.76 Y110.304 E.02245 ; infill
G1 X140.341 Y107.885 E.15226 ; infill
G1 X139.836 Y107.885 E.02245 ; infill
G1 X142.76 Y110.809 E.18402 ; infill
G1 X142.76 Y111.313 E.02245 ; infill
G1 X139.331 Y107.885 E.21577 ; infill
G1 X138.827 Y107.885 E.02245 ; infill
G1 X142.598 Y111.656 E.23731 ; infill
G1 X142.093 Y111.656 E.02245 ; infill
G1 X138.322 Y107.885 E.23731 ; infill
G1 X137.818 Y107.885 E.02245 ; infill
G1 X141.589 Y111.656 E.23731 ; infill
G1 X141.084 Y111.656 E.02245 ; infill
G1 X137.313 Y107.885 E.23731 ; infill
G1 X136.809 Y107.885 E.02245 ; infill
G1 X140.58 Y111.656 E.23731 ; infill
G1 X140.075 Y111.656 E.02245 ; infill
G1 X136.304 Y107.885 E.23731 ; infill
G1 X135.8 Y107.885 E.02245 ; infill
G1 X139.57 Y111.656 E.23731 ; infill
G1 X139.066 Y111.656 E.02245 ; infill
G1 X135.295 Y107.885 E.23731 ; infill
G1 X134.79 Y107.885 E.02245 ; infill
G1 X138.561 Y111.656 E.23731 ; infill
G1 X138.057 Y111.656 E.02245 ; infill
G1 X134.286 Y107.885 E.23731 ; infill
G1 X133.781 Y107.885 E.02245 ; infill
G1 X137.552 Y111.656 E.23731 ; infill
G1 X137.048 Y111.656 E.02245 ; infill
G1 X133.277 Y107.885 E.23731 ; infill
G1 X132.772 Y107.885 E.02245 ; infill
G1 X136.543 Y111.656 E.23731 ; infill
G1 X136.039 Y111.656 E.02245 ; infill
G1 X132.268 Y107.885 E.23731 ; infill
G1 X131.763 Y107.885 E.02245 ; infill
G1 X135.534 Y111.656 E.23731 ; infill
G1 X135.029 Y111.656 E.02245 ; infill
G1 X131.259 Y107.885 E.23731 ; infill
G1 X130.754 Y107.885 E.02245 ; infill
G1 X134.525 Y111.656 E.23731 ; infill
G1 X134.02 Y111.656 E.02245 ; infill
G1 X130.249 Y107.885 E.23731 ; infill
G1 X129.745 Y107.885 E.02245 ; infill
G1 X133.516 Y111.656 E.23731 ; infill
G1 X133.011 Y111.656 E.02245 ; infill
G1 X129.24 Y107.885 E.23731 ; infill
G1 X128.736 Y107.885 E.02245 ; infill
G1 X132.507 Y111.656 E.23731 ; infill
G1 X132.002 Y111.656 E.02245 ; infill
G1 X128.231 Y107.885 E.23731 ; infill
G1 X127.727 Y107.885 E.02245 ; infill
G1 X131.498 Y111.656 E.23731 ; infill
G1 X130.993 Y111.656 E.02245 ; infill
G1 X127.222 Y107.885 E.23731 ; infill
G1 X126.718 Y107.885 E.02245 ; infill
G1 X130.488 Y111.656 E.23731 ; infill
G1 X129.984 Y111.656 E.02245 ; infill
G1 X126.213 Y107.885 E.23731 ; infill
G1 X125.708 Y107.885 E.02245 ; infill
G1 X129.479 Y111.656 E.23731 ; infill
G1 X128.975 Y111.656 E.02245 ; infill
G1 X125.204 Y107.885 E.23731 ; infill
G1 X124.699 Y107.885 E.02245 ; infill
G1 X128.47 Y111.656 E.23731 ; infill
G1 X127.966 Y111.656 E.02245 ; infill
G1 X124.195 Y107.885 E.23731 ; infill
G1 X123.69 Y107.885 E.02245 ; infill
G1 X127.461 Y111.656 E.23731 ; infill
G1 X126.957 Y111.656 E.02245 ; infill
G1 X123.186 Y107.885 E.23731 ; infill
G1 X122.681 Y107.885 E.02245 ; infill
G1 X126.452 Y111.656 E.23731 ; infill
G1 X125.947 Y111.656 E.02245 ; infill
G1 X122.176 Y107.885 E.23731 ; infill
G1 X121.672 Y107.885 E.02245 ; infill
G1 X125.443 Y111.656 E.23731 ; infill
G1 X124.938 Y111.656 E.02245 ; infill
G1 X121.167 Y107.885 E.23731 ; infill
G1 X120.663 Y107.885 E.02245 ; infill
G1 X124.434 Y111.656 E.23731 ; infill
G1 X123.929 Y111.656 E.02245 ; infill
G1 X120.158 Y107.885 E.23731 ; infill
G1 X119.654 Y107.885 E.02245 ; infill
G1 X123.425 Y111.656 E.23731 ; infill
G1 X122.92 Y111.656 E.02245 ; infill
G1 X119.149 Y107.885 E.23731 ; infill
G1 X118.645 Y107.885 E.02245 ; infill
G1 X122.415 Y111.656 E.23731 ; infill
G1 X121.911 Y111.656 E.02245 ; infill
G1 X118.14 Y107.885 E.23731 ; infill
G1 X117.635 Y107.885 E.02245 ; infill
G1 X121.406 Y111.656 E.23731 ; infill
G1 X120.902 Y111.656 E.02245 ; infill
G1 X117.131 Y107.885 E.23731 ; infill
G1 X116.626 Y107.885 E.02245 ; infill
G1 X120.397 Y111.656 E.23731 ; infill
G1 X119.893 Y111.656 E.02245 ; infill
G1 X116.122 Y107.885 E.23731 ; infill
G1 X115.617 Y107.885 E.02245 ; infill
G1 X119.388 Y111.656 E.23731 ; infill
G1 X118.884 Y111.656 E.02245 ; infill
G1 X115.113 Y107.885 E.23731 ; infill
G1 X114.608 Y107.885 E.02245 ; infill
G1 X118.379 Y111.656 E.23731 ; infill
G1 X117.874 Y111.656 E.02245 ; infill
G1 X114.104 Y107.885 E.23731 ; infill
G1 X113.599 Y107.885 E.02245 ; infill
G1 X117.37 Y111.656 E.23731 ; infill
G1 X116.865 Y111.656 E.02245 ; infill
G1 X113.094 Y107.885 E.23731 ; infill
G1 X112.59 Y107.885 E.02245 ; infill
G1 X116.361 Y111.656 E.23731 ; infill
G1 X115.856 Y111.656 E.02245 ; infill
G1 X112.085 Y107.885 E.23731 ; infill
G1 X111.581 Y107.885 E.02245 ; infill
G1 X115.352 Y111.656 E.23731 ; infill
G1 X114.847 Y111.656 E.02245 ; infill
G1 X111.076 Y107.885 E.23731 ; infill
G1 X110.572 Y107.885 E.02245 ; infill
G1 X114.343 Y111.656 E.23731 ; infill
G1 X113.838 Y111.656 E.02245 ; infill
G1 X110.067 Y107.885 E.23731 ; infill
G1 X109.563 Y107.885 E.02245 ; infill
G1 X113.333 Y111.656 E.23731 ; infill
G1 X112.829 Y111.656 E.02245 ; infill
G1 X109.058 Y107.885 E.23731 ; infill
G1 X108.553 Y107.885 E.02245 ; infill
G1 X112.324 Y111.656 E.23731 ; infill
G1 X111.82 Y111.656 E.02245 ; infill
G1 X108.049 Y107.885 E.23731 ; infill
G1 X107.544 Y107.885 E.02245 ; infill
G1 X111.315 Y111.656 E.23731 ; infill
G1 X110.811 Y111.656 E.02245 ; infill
G1 X107.04 Y107.885 E.23731 ; infill
G1 X106.535 Y107.885 E.02245 ; infill
G1 X110.306 Y111.656 E.23731 ; infill
G1 X109.802 Y111.656 E.02245 ; infill
G1 X106.031 Y107.885 E.23731 ; infill
G1 X105.526 Y107.885 E.02245 ; infill
G1 X109.297 Y111.656 E.23731 ; infill
G1 X108.792 Y111.656 E.02245 ; infill
G1 X105.022 Y107.885 E.23731 ; infill
G1 X104.517 Y107.885 E.02245 ; infill
G1 X108.288 Y111.656 E.23731 ; infill
G1 X107.783 Y111.656 E.02245 ; infill
G1 X104.012 Y107.885 E.23731 ; infill
G1 X103.508 Y107.885 E.02245 ; infill
G1 X107.279 Y111.656 E.23731 ; infill
G1 X106.774 Y111.656 E.02245 ; infill
G1 X103.003 Y107.885 E.23731 ; infill
G1 X102.499 Y107.885 E.02245 ; infill
G1 X106.27 Y111.656 E.23731 ; infill
G1 X105.765 Y111.656 E.02245 ; infill
G1 X101.994 Y107.885 E.23731 ; infill
G1 X101.49 Y107.885 E.02245 ; infill
G1 X105.261 Y111.656 E.23731 ; infill
G1 X104.756 Y111.656 E.02245 ; infill
G1 X100.985 Y107.885 E.23731 ; infill
G1 X100.481 Y107.885 E.02245 ; infill
G1 X104.251 Y111.656 E.23731 ; infill
G1 X103.747 Y111.656 E.02245 ; infill
G1 X99.976 Y107.885 E.23731 ; infill
G1 X99.471 Y107.885 E.02245 ; infill
G1 X103.242 Y111.656 E.23731 ; infill
G1 X102.738 Y111.656 E.02245 ; infill
G1 X98.967 Y107.885 E.23731 ; infill
G1 X98.462 Y107.885 E.02245 ; infill
G1 X102.233 Y111.656 E.23731 ; infill
G1 X101.729 Y111.656 E.02245 ; infill
G1 X97.958 Y107.885 E.23731 ; infill
G1 X97.453 Y107.885 E.02245 ; infill
G1 X101.224 Y111.656 E.23731 ; infill
G1 X100.72 Y111.656 E.02245 ; infill
G1 X96.949 Y107.885 E.23731 ; infill
G1 X96.444 Y107.885 E.02245 ; infill
G1 X100.215 Y111.656 E.23731 ; infill
G1 X99.71 Y111.656 E.02245 ; infill
G1 X95.94 Y107.885 E.23731 ; infill
G1 X95.435 Y107.885 E.02245 ; infill
G1 X99.206 Y111.656 E.23731 ; infill
G1 X98.701 Y111.656 E.02245 ; infill
G1 X94.93 Y107.885 E.23731 ; infill
G1 X94.426 Y107.885 E.02245 ; infill
G1 X98.197 Y111.656 E.23731 ; infill
G1 X97.692 Y111.656 E.02245 ; infill
G1 X93.921 Y107.885 E.23731 ; infill
G1 X93.417 Y107.885 E.02245 ; infill
G1 X97.188 Y111.656 E.23731 ; infill
G1 X96.683 Y111.656 E.02245 ; infill
G1 X92.912 Y107.885 E.23731 ; infill
G1 X92.408 Y107.885 E.02245 ; infill
G1 X96.179 Y111.656 E.23731 ; infill
G1 X95.674 Y111.656 E.02245 ; infill
G1 X91.903 Y107.885 E.23731 ; infill
G1 X91.398 Y107.885 E.02245 ; infill
G1 X95.169 Y111.656 E.23731 ; infill
G1 X94.665 Y111.656 E.02245 ; infill
G1 X90.894 Y107.885 E.23731 ; infill
G1 X90.389 Y107.885 E.02245 ; infill
G1 X94.16 Y111.656 E.23731 ; infill
G1 X93.656 Y111.656 E.02245 ; infill
G1 X89.885 Y107.885 E.23731 ; infill
G1 X89.38 Y107.885 E.02245 ; infill
G1 X93.151 Y111.656 E.23731 ; infill
G1 X92.647 Y111.656 E.02245 ; infill
G1 X88.876 Y107.885 E.23731 ; infill
G1 X88.371 Y107.885 E.02245 ; infill
G1 X92.142 Y111.656 E.23731 ; infill
G1 X91.637 Y111.656 E.02245 ; infill
G1 X87.867 Y107.885 E.23731 ; infill
G1 X87.362 Y107.885 E.02245 ; infill
G1 X91.133 Y111.656 E.23731 ; infill
G1 X90.628 Y111.656 E.02245 ; infill
G1 X86.857 Y107.885 E.23731 ; infill
G1 X86.353 Y107.885 E.02245 ; infill
G1 X90.124 Y111.656 E.23731 ; infill
G1 X89.619 Y111.656 E.02245 ; infill
G1 X85.848 Y107.885 E.23731 ; infill
G1 X85.344 Y107.885 E.02245 ; infill
G1 X89.115 Y111.656 E.23731 ; infill
G1 X88.61 Y111.656 E.02245 ; infill
G1 X84.839 Y107.885 E.23731 ; infill
G1 X84.335 Y107.885 E.02245 ; infill
G1 X88.106 Y111.656 E.23731 ; infill
G1 X87.601 Y111.656 E.02245 ; infill
G1 X83.83 Y107.885 E.23731 ; infill
G1 X83.326 Y107.885 E.02245 ; infill
G1 X87.096 Y111.656 E.23731 ; infill
G1 X86.592 Y111.656 E.02245 ; infill
G1 X82.821 Y107.885 E.23731 ; infill
G1 X82.316 Y107.885 E.02245 ; infill
G1 X86.087 Y111.656 E.23731 ; infill
G1 X85.583 Y111.656 E.02245 ; infill
G1 X81.812 Y107.885 E.23731 ; infill
G1 X81.307 Y107.885 E.02245 ; infill
G1 X85.078 Y111.656 E.23731 ; infill
G1 X84.574 Y111.656 E.02245 ; infill
G1 X80.803 Y107.885 E.23731 ; infill
G1 X80.298 Y107.885 E.02245 ; infill
G1 X84.069 Y111.656 E.23731 ; infill
G1 X83.565 Y111.656 E.02245 ; infill
G1 X80.136 Y108.227 E.21577 ; infill
G1 X80.136 Y108.732 E.02245 ; infill
G1 X83.06 Y111.656 E.18401 ; infill
G1 X82.555 Y111.656 E.02245 ; infill
G1 X80.136 Y109.236 E.15226 ; infill
G1 X80.136 Y109.741 E.02245 ; infill
G1 X82.051 Y111.656 E.12051 ; infill
G1 X81.546 Y111.656 E.02245 ; infill
G1 X80.136 Y110.245 E.08876 ; infill
G1 X80.136 Y110.75 E.02245 ; infill
G1 X81.042 Y111.656 E.057 ; infill
G1 X80.537 Y111.656 E.02245 ; infill
G1 X79.976 Y111.094 E.03532 ; infill
M204 S1000 ; adjust acceleration
; stop printing object led holder.stl id:0 copy 0
M106 S127.5 ; enable fan
;LAYER_CHANGE
;Z:0.55
;HEIGHT:0.25
;BEFORE_LAYER_CHANGE
;0.55
G92 E0
G1 E-2.5 F2100 ; retract
;WIPE_START
G1 F6240
G1 X80.537 Y111.656 E-.25378 ; wipe and retract
G1 X81.042 Y111.656 E-.16131 ; wipe and retract
G1 X80.136 Y110.75 E-.40955 ; wipe and retract
G1 X80.136 Y110.245 E-.16131 ; wipe and retract
G1 X81.546 Y111.656 E-.63769 ; wipe and retract
G1 X82.051 Y111.656 E-.16131 ; wipe and retract
G1 X80.746 Y110.351 E-.59004 ; wipe and retract
;WIPE_END
G1 E-.125 F2100 ; retract
G1 Z.4 F7800 ; lift Z
G1 Z.55 ; move to next layer (1)
;AFTER_LAYER_CHANGE
;0.55
M104 S205 ; set temperature
M140 S70 ; set bed temperature
; printing object led holder.stl id:0 copy 0
G1 Z.65 ; lift Z
G1 X79.966 Y112.052 ; move to first perimeter point
G1 Z.55 ; restore layer Z
G1 E5 F2100 ;  ; unretract
M204 S800 ; adjust acceleration
;TYPE:Perimeter
;WIDTH:0.449999
G1 F2700
G1 X79.966 Y107.488 E.18801 ; perimeter
G1 X142.93 Y107.488 E2.59387 ; perimeter
G1 X142.93 Y112.052 E.18801 ; perimeter
G1 X80.026 Y112.052 E2.5914 ; perimeter
M204 S1000 ; adjust acceleration
G1 X79.569 Y112.448 F7800 ; move to first perimeter point
M204 S800 ; adjust acceleration
G1 F2700
G1 X79.569 Y107.092 E.22066 ; perimeter
G1 X143.327 Y107.092 E2.62653 ; perimeter
G1 X143.327 Y112.448 E.22066 ; perimeter
G1 X79.629 Y112.448 E2.62405 ; perimeter
M204 S1000 ; adjust acceleration
G1 X79.173 Y112.845 F7800 ; move to first perimeter point
M204 S800 ; adjust acceleration
;TYPE:External perimeter
G1 F1500
G1 X79.173 Y106.696 E.25332 ; perimeter
G1 X143.723 Y106.696 E2.65918 ; perimeter
G1 X143.723 Y112.845 E.25332 ; perimeter
G1 X79.233 Y112.845 E2.65671 ; perimeter
M204 S1000 ; adjust acceleration
G1 X79.362 Y112.492 F7800 ; move inwards before travel
G1 E-2.5 F2100 ; retract
;WIPE_START
G1 F6240
G1 X79.173 Y106.696 E-1.96606 ; wipe and retract
G1 X80.452 Y106.696 E-.40894 ; wipe and retract
;WIPE_END
G1 E-.125 F2100 ; retract
G1 Z.65 F7800 ; lift Z
