; generated by PrusaSlicer 2.5.2+win64 on 2023-07-06 at 18:30:18 UTC

; 

; external perimeters extrusion width = 0.45mm
; perimeters extrusion width = 0.45mm
; infill extrusion width = 0.45mm
; solid infill extrusion width = 0.45mm
; top infill extrusion width = 0.40mm
; support material extrusion width = 0.35mm
; first layer extrusion width = 0.42mm

M107 ; disable fan
;TYPE:Custom
; Initial setups
G90 ; use absolute coordinates
M83 ; extruder relative mode
M220 S100 ; reset speed factor to 100%
M221 S100 ; reset extrusion rate to 100%

; Set the heating
M190 S65 ; wait for bed to heat up
M104 S210 ; start nozzle heating but don't wait

; Home
G1 Z3 F3000 ; move z up little to prevent scratching of surface
G28 ; home all axes
G1 X3 Y3 F5000 ; move to corner of the bed to avoid ooze over centre

; Wait for final heating
M109 S210 ; wait for the nozzle to heat up
M190 S65 ; wait for the bed to heat up

; Return to prime position, Prime line routine
G92 E0 ; Reset Extruder
G1 Z3 F3000 ; move z up little to prevent scratching of surface
G1 X10 Y.5 Z0.25 F5000.0 ; Move to start position
G1 X100 Y.5 Z0.25 F1500.0 E15 ; Draw the first line
G1 X100 Y.2 Z0.25 F5000.0 ; Move to side a little
G1 X10 Y.2 Z0.25 F1500.0 E30 ; Draw the second line
G92 E0 ; Reset Extruder
M221 S95
G21 ; set units to millimeters
G90 ; use absolute coordinates
M83 ; use relative distances for extrusion
; Filament gcode
M107 ; disable fan
;LAYER_CHANGE
;Z:0.3
;HEIGHT:0.3
;BEFORE_LAYER_CHANGE
;0.3
G92 E0
G1 E-5 F2100 ; retract
G1 Z.1 F7800 ; lift Z
G1 Z.3 ; move to next layer (0)
;AFTER_LAYER_CHANGE
;0.3
G1 Z.4 ; lift Z
G1 X91.659 Y90.704 ; move to first skirt point
G1 Z.3 ; restore layer Z
G1 E5 F2100 ;  ; unretract
M204 S500 ; adjust acceleration
;TYPE:Skirt/Brim
;WIDTH:0.42
G1 F1200
G1 X95.211 Y87.856 E.20194 ; skirt
G1 X96.419 Y87.093 E.06338 ; skirt
G1 X100.518 Y85.11 E.20194 ; skirt
G1 X101.866 Y84.636 E.06338 ; skirt
G1 X106.304 Y83.619 E.20194 ; skirt
G1 X107.724 Y83.459 E.06338 ; skirt
G1 X112.276 Y83.459 E.20194 ; skirt
G1 X113.696 Y83.619 E.06338 ; skirt
G1 X118.134 Y84.636 E.20194 ; skirt
G1 X119.482 Y85.11 E.06338 ; skirt
G1 X123.581 Y87.093 E.20194 ; skirt
G1 X124.789 Y87.856 E.06338 ; skirt
G1 X128.341 Y90.704 E.20194 ; skirt
G1 X129.578 Y92.028 E.08035 ; skirt
G1 X130.74 Y93.695 E.09015 ; skirt
G1 X131.463 Y95.059 E.06849 ; skirt
G1 X132.189 Y96.958 E.09015 ; skirt
G1 X132.562 Y98.456 E.06849 ; skirt
G1 X132.856 Y101.246 E.12441 ; skirt
G1 X132.856 Y118.626 E.77089 ; skirt
G1 X132.562 Y121.415 E.12442 ; skirt
G1 X132.189 Y122.914 E.06849 ; skirt
G1 X131.463 Y124.812 E.09015 ; skirt
G1 X130.74 Y126.177 E.06849 ; skirt
G1 X129.578 Y127.844 E.09015 ; skirt
G1 X128.657 Y128.896 E.06199 ; skirt
G1 X126.039 Y131.294 E.15749 ; skirt
G1 X125.038 Y132.044 E.05549 ; skirt
G1 X122.001 Y133.883 E.15749 ; skirt
G1 X120.872 Y134.422 E.05548 ; skirt
G1 X117.533 Y135.631 E.15749 ; skirt
G1 X116.321 Y135.939 E.05549 ; skirt
G1 X112.81 Y136.47 E.15749 ; skirt
G1 X110 Y136.541 E.12469 ; skirt
G1 X105.408 Y136.118 E.20453 ; skirt
G1 X104.181 Y135.873 E.05549 ; skirt
G1 X100.369 Y134.712 E.17679 ; skirt
G1 X99.214 Y134.231 E.05549 ; skirt
G1 X95.702 Y132.345 E.17679 ; skirt
G1 X94.664 Y131.648 E.05549 ; skirt
G1 X91.59 Y129.111 E.17679 ; skirt
G1 X90.422 Y127.844 E.07642 ; skirt
G1 X89.26 Y126.177 E.09015 ; skirt
G1 X88.537 Y124.812 E.06849 ; skirt
G1 X87.811 Y122.914 E.09015 ; skirt
G1 X87.438 Y121.415 E.06849 ; skirt
G1 X87.144 Y118.626 E.12441 ; skirt
G1 X87.144 Y101.246 E.77089 ; skirt
G1 X87.438 Y98.456 E.12442 ; skirt
G1 X87.811 Y96.958 E.06849 ; skirt
G1 X88.537 Y95.059 E.09015 ; skirt
G1 X89.26 Y93.695 E.06849 ; skirt
G1 X90.422 Y92.028 E.09015 ; skirt
G1 X91.618 Y90.748 E.07769 ; skirt
M204 S1000 ; adjust acceleration
; printing object fifth.stl id:0 copy 0
G1 E-2.5 F2100 ; retract
;WIPE_START
G1 F6240
G1 X95.211 Y87.856 E-1.4746 ; wipe and retract
G1 X96.419 Y87.093 E-.45685 ; wipe and retract
G1 X97.668 Y86.489 E-.44355 ; wipe and retract
;WIPE_END
G1 E-.125 F2100 ; retract
G1 Z.4 F7800 ; lift Z
G1 X108.329 Y100.135 ; move to first support material point
G1 Z.3 ; restore layer Z
G1 E5 F2100 ;  ; unretract
M204 S500 ; adjust acceleration
;TYPE:Support material
G1 F1200
G1 X111.671 Y100.135 E.14821 ; support material
G1 X111.671 Y96.895 E.14374 ; support material
G1 X113.432 Y97.126 E.07881 ; support material
G1 X116.631 Y98.451 E.15355 ; support material
G1 X119.377 Y100.559 E.15355 ; support material
G1 X121.485 Y103.305 E.15355 ; support material
G1 X122.809 Y106.504 E.15355 ; support material
G1 X123.261 Y109.936 E.15355 ; support material
G1 X122.809 Y113.368 E.15355 ; support material
G1 X121.485 Y116.566 E.15355 ; support material
G1 X119.377 Y119.313 E.15355 ; support material
G1 X116.631 Y121.42 E.15355 ; support material
G1 X113.432 Y122.745 E.15355 ; support material
G1 X111.671 Y122.977 E.07881 ; support material
G1 X111.671 Y119.865 E.13805 ; support material
G1 X108.329 Y119.865 E.14821 ; support material
G1 X108.329 Y122.977 E.13805 ; support material
G1 X106.568 Y122.745 E.07881 ; support material
G1 X103.369 Y121.42 E.15355 ; support material
G1 X100.623 Y119.313 E.15355 ; support material
G1 X98.515 Y116.566 E.15355 ; support material
G1 X97.191 Y113.368 E.15355 ; support material
G1 X96.739 Y109.936 E.15355 ; support material
G1 X97.191 Y106.504 E.15355 ; support material
G1 X98.515 Y103.305 E.15355 ; support material
G1 X100.623 Y100.559 E.15355 ; support material
G1 X103.369 Y98.451 E.15355 ; support material
G1 X106.568 Y97.126 E.15355 ; support material
G1 X108.329 Y96.895 E.07881 ; support material
G1 X108.329 Y100.082 E.14138 ; support material
M204 S1000 ; adjust acceleration
G1 X122.644 Y113.349 F7800 ; move to first support material point
M204 S500 ; adjust acceleration
G1 F1200
G1 X122.644 Y107.701 E.25049 ; support material
G1 X122.498 Y106.587 E.04984 ; support material
G1 X122.249 Y105.987 E.0288 ; support material
G1 X122.249 Y113.884 E.35028 ; support material
G1 X121.854 Y114.838 E.0458 ; support material
G1 X121.854 Y105.033 E.4349 ; support material
G1 X121.459 Y104.079 E.0458 ; support material
G1 X121.459 Y115.792 E.51952 ; support material
G1 X121.205 Y116.405 E.02942 ; support material
G1 X121.064 Y116.589 E.0103 ; support material
G1 X121.064 Y103.282 E.59022 ; support material
G1 X120.669 Y102.768 E.02879 ; support material
G1 X120.669 Y117.104 E.6359 ; support material
G1 X120.273 Y117.619 E.02879 ; support material
G1 X120.273 Y102.253 E.68158 ; support material
G1 X119.878 Y101.738 E.02879 ; support material
G1 X119.878 Y118.134 E.72726 ; support material
G1 X119.483 Y118.649 E.02879 ; support material
G1 X119.483 Y101.223 E.77294 ; support material
G1 X119.149 Y100.787 E.02436 ; support material
G1 X119.088 Y100.74 E.0034 ; support material
G1 X119.088 Y119.131 E.81573 ; support material
G1 X118.693 Y119.435 E.02209 ; support material
G1 X118.693 Y100.437 E.84263 ; support material
G1 X118.298 Y100.134 E.02209 ; support material
G1 X118.298 Y119.738 E.86952 ; support material
G1 X117.903 Y120.041 E.02209 ; support material
G1 X117.903 Y99.831 E.89642 ; support material
G1 X117.508 Y99.528 E.02209 ; support material
G1 X117.508 Y120.344 E.92332 ; support material
G1 X117.112 Y120.647 E.02209 ; support material
G1 X117.112 Y99.224 E.95021 ; support material
G1 X116.717 Y98.921 E.02209 ; support material
G1 X116.717 Y120.951 E.97711 ; support material
G1 X116.469 Y121.141 E.01387 ; support material
G1 X116.322 Y121.202 E.00706 ; support material
G1 X116.322 Y98.67 E.9994 ; support material
G1 X115.927 Y98.506 E.01897 ; support material
G1 X115.927 Y121.365 E1.01392 ; support material
G1 X115.532 Y121.529 E.01897 ; support material
G1 X115.532 Y98.343 E1.02844 ; support material
G1 X115.137 Y98.179 E.01897 ; support material
G1 X115.137 Y121.693 E1.04295 ; support material
G1 X114.742 Y121.856 E.01897 ; support material
G1 X114.742 Y98.015 E1.05747 ; support material
G1 X114.346 Y97.852 E.01897 ; support material
G1 X114.346 Y122.02 E1.07199 ; support material
G1 X113.951 Y122.184 E.01897 ; support material
G1 X113.951 Y97.688 E1.08651 ; support material
G1 X113.556 Y97.524 E.01897 ; support material
G1 X113.556 Y122.347 E1.10103 ; support material
G1 X113.349 Y122.433 E.00996 ; support material
G1 X113.161 Y122.458 E.0084 ; support material
G1 X113.161 Y97.414 E1.11085 ; support material
G1 X112.766 Y97.362 E.01768 ; support material
G1 X112.766 Y122.51 E1.11546 ; support material
G1 X112.371 Y122.562 E.01768 ; support material
G1 X112.371 Y97.31 E1.12008 ; support material
G1 X111.991 Y97.259 E.017 ; support material
G1 X111.991 Y100.455 E.14175 ; support material
G1 X111.976 Y100.455 E.00067 ; support material
G1 X111.976 Y119.545 E.8467 ; support material
G1 X111.581 Y119.545 E.01753 ; support material
G1 X111.581 Y100.455 E.8467 ; support material
G1 X111.185 Y100.455 E.01753 ; support material
G1 X111.185 Y119.545 E.8467 ; support material
G1 X110.79 Y119.545 E.01753 ; support material
G1 X110.79 Y100.455 E.8467 ; support material
G1 X110.395 Y100.455 E.01753 ; support material
G1 X110.395 Y119.545 E.8467 ; support material
G1 X110 Y119.545 E.01753 ; support material
G1 X110 Y100.455 E.8467 ; support material
G1 X109.605 Y100.455 E.01753 ; support material
G1 X109.605 Y119.545 E.8467 ; support material
G1 X109.21 Y119.545 E.01753 ; support material
G1 X109.21 Y100.455 E.8467 ; support material
G1 X108.815 Y100.455 E.01753 ; support material
G1 X108.815 Y119.545 E.8467 ; support material
G1 X108.419 Y119.545 E.01753 ; support material
G1 X108.419 Y100.455 E.8467 ; support material
G1 X108.024 Y100.455 E.01753 ; support material
G1 X108.024 Y119.545 E.8467 ; support material
G1 X108.009 Y119.545 E.00067 ; support material
G1 X108.009 Y122.612 E.13606 ; support material
G1 X107.629 Y122.562 E.017 ; support material
G1 X107.629 Y97.31 E1.12008 ; support material
G1 X107.234 Y97.362 E.01768 ; support material
G1 X107.234 Y122.51 E1.11546 ; support material
G1 X106.839 Y122.458 E.01768 ; support material
G1 X106.839 Y97.414 E1.11085 ; support material
G1 X106.651 Y97.438 E.0084 ; support material
G1 X106.444 Y97.524 E.00996 ; support material
G1 X106.444 Y122.347 E1.10103 ; support material
G1 X106.049 Y122.184 E.01897 ; support material
G1 X106.049 Y97.688 E1.08651 ; support material
G1 X105.654 Y97.852 E.01897 ; support material
G1 X105.654 Y122.02 E1.07199 ; support material
G1 X105.258 Y121.856 E.01897 ; support material
G1 X105.258 Y98.015 E1.05747 ; support material
G1 X104.863 Y98.179 E.01897 ; support material
G1 X104.863 Y121.693 E1.04295 ; support material
G1 X104.468 Y121.529 E.01897 ; support material
G1 X104.468 Y98.343 E1.02844 ; support material
G1 X104.073 Y98.506 E.01897 ; support material
G1 X104.073 Y121.365 E1.01392 ; support material
G1 X103.678 Y121.202 E.01897 ; support material
G1 X103.678 Y98.67 E.9994 ; support material
G1 X103.531 Y98.731 E.00706 ; support material
G1 X103.283 Y98.921 E.01387 ; support material
G1 X103.283 Y120.951 E.97711 ; support material
G1 X102.888 Y120.647 E.02209 ; support material
G1 X102.888 Y99.224 E.95021 ; support material
G1 X102.492 Y99.528 E.02209 ; support material
G1 X102.492 Y120.344 E.92332 ; support material
G1 X102.097 Y120.041 E.02209 ; support material
G1 X102.097 Y99.831 E.89642 ; support material
G1 X101.702 Y100.134 E.02209 ; support material
G1 X101.702 Y119.738 E.86952 ; support material
G1 X101.307 Y119.435 E.02209 ; support material
G1 X101.307 Y100.437 E.84263 ; support material
G1 X100.912 Y100.74 E.02209 ; support material
G1 X100.912 Y119.131 E.81573 ; support material
G1 X100.851 Y119.085 E.0034 ; support material
G1 X100.517 Y118.649 E.02436 ; support material
G1 X100.517 Y101.223 E.77294 ; support material
G1 X100.122 Y101.738 E.02879 ; support material
G1 X100.122 Y118.134 E.72726 ; support material
G1 X99.727 Y117.619 E.02879 ; support material
G1 X99.727 Y102.253 E.68158 ; support material
G1 X99.331 Y102.767 E.02879 ; support material
G1 X99.331 Y117.104 E.6359 ; support material
G1 X98.936 Y116.589 E.02879 ; support material
G1 X98.936 Y103.282 E.59022 ; support material
G1 X98.795 Y103.467 E.0103 ; support material
G1 X98.541 Y104.079 E.02942 ; support material
G1 X98.541 Y115.792 E.51952 ; support material
G1 X98.146 Y114.838 E.0458 ; support material
G1 X98.146 Y105.033 E.4349 ; support material
G1 X97.751 Y105.987 E.0458 ; support material
G1 X97.751 Y113.884 E.35028 ; support material
G1 X97.502 Y113.285 E.0288 ; support material
G1 X97.356 Y112.171 E.04984 ; support material
G1 X97.356 Y106.523 E.25049 ; support material
M204 S1000 ; adjust acceleration
G1 E-2.5 F2100 ; retract
;WIPE_START
G1 F6240
G1 X97.356 Y112.171 E-1.80558 ; wipe and retract
G1 X97.502 Y113.285 E-.35923 ; wipe and retract
G1 X97.751 Y113.884 E-.20758 ; wipe and retract
G1 X97.751 Y113.876 E-.00261 ; wipe and retract
;WIPE_END
G1 E-.125 F2100 ; retract
G1 Z.4 F7800 ; lift Z
G1 X94.648 Y99.452 ; move to first perimeter point
G1 Z.3 ; restore layer Z
G1 E5 F2100 ;  ; unretract
M204 S500 ; adjust acceleration
;TYPE:Perimeter
;WIDTH:0.42
G1 F1200
G1 X95.293 Y97.764 E.08015 ; perimeter
G1 X96.315 Y96.298 E.07927 ; perimeter
G1 X99.682 Y93.598 E.19144 ; perimeter
G1 X103.593 Y91.706 E.1927 ; perimeter
G1 X107.828 Y90.735 E.1927 ; perimeter
G1 X112.172 Y90.735 E.1927 ; perimeter
G1 X116.407 Y91.706 E.1927 ; perimeter
G1 X120.318 Y93.598 E.1927 ; perimeter
G1 X123.685 Y96.298 E.19144 ; perimeter
G1 X124.707 Y97.764 E.07927 ; perimeter
G1 X125.352 Y99.452 E.08015 ; perimeter
G1 X125.579 Y101.302 E.08266 ; perimeter
G1 X125.579 Y118.57 E.7659 ; perimeter
G1 X125.352 Y120.42 E.08266 ; perimeter
G1 X124.707 Y122.107 E.08015 ; perimeter
G1 X123.667 Y123.599 E.08063 ; perimeter
G1 X121.191 Y125.866 E.14893 ; perimeter
G1 X118.31 Y127.611 E.14941 ; perimeter
G1 X115.142 Y128.757 E.14941 ; perimeter
G1 X111.79 Y129.265 E.15037 ; perimeter
G1 X110.045 Y129.265 E.07739 ; perimeter
G1 X106.215 Y128.886 E.17073 ; perimeter
G1 X102.576 Y127.777 E.1687 ; perimeter
G1 X99.226 Y125.978 E.1687 ; perimeter
G1 X96.319 Y123.579 E.16716 ; perimeter
G1 X95.293 Y122.107 E.07956 ; perimeter
G1 X94.648 Y120.42 E.08015 ; perimeter
G1 X94.421 Y118.57 E.08266 ; perimeter
G1 X94.421 Y101.302 E.7659 ; perimeter
G1 X94.64 Y99.512 E.08 ; perimeter
M204 S1000 ; adjust acceleration
G1 X94.3 Y99.366 F7800 ; move to first perimeter point
M204 S500 ; adjust acceleration
G1 F1200
G1 X94.977 Y97.597 E.08401 ; perimeter
G1 X96.053 Y96.053 E.08347 ; perimeter
G1 X99.491 Y93.296 E.19549 ; perimeter
G1 X103.475 Y91.368 E.19627 ; perimeter
G1 X107.788 Y90.38 E.19626 ; perimeter
G1 X112.212 Y90.38 E.19627 ; perimeter
G1 X116.526 Y91.368 E.19626 ; perimeter
G1 X120.509 Y93.296 E.19627 ; perimeter
G1 X123.947 Y96.053 E.19549 ; perimeter
G1 X125.023 Y97.597 E.08347 ; perimeter
G1 X125.7 Y99.366 E.08401 ; perimeter
G1 X125.934 Y101.28 E.08555 ; perimeter
G1 X125.934 Y118.591 E.76783 ; perimeter
G1 X125.7 Y120.506 E.08555 ; perimeter
G1 X125.023 Y122.275 E.08401 ; perimeter
G1 X123.936 Y123.834 E.08431 ; perimeter
G1 X121.405 Y126.152 E.15223 ; perimeter
G1 X118.464 Y127.933 E.15253 ; perimeter
G1 X115.23 Y129.104 E.15253 ; perimeter
G1 X111.817 Y129.62 E.15312 ; perimeter
G1 X110.028 Y129.62 E.07936 ; perimeter
G1 X106.145 Y129.236 E.17307 ; perimeter
G1 X102.439 Y128.107 E.17182 ; perimeter
G1 X99.026 Y126.274 E.17182 ; perimeter
G1 X96.055 Y123.822 E.17087 ; perimeter
G1 X94.977 Y122.275 E.08365 ; perimeter
G1 X94.3 Y120.506 E.08401 ; perimeter
G1 X94.066 Y118.591 E.08555 ; perimeter
G1 X94.066 Y101.28 E.76783 ; perimeter
G1 X94.293 Y99.425 E.08289 ; perimeter
M204 S1000 ; adjust acceleration
G1 X93.952 Y99.279 F7800 ; move to first perimeter point
M204 S500 ; adjust acceleration
;TYPE:External perimeter
G1 F1200
G1 X94.66 Y97.429 E.08787 ; perimeter
G1 X95.791 Y95.808 E.08767 ; perimeter
G1 X99.3 Y92.993 E.19955 ; perimeter
G1 X103.356 Y91.031 E.19983 ; perimeter
G1 X107.747 Y90.024 E.19983 ; perimeter
G1 X112.253 Y90.024 E.19983 ; perimeter
