; generated by PrusaSlicer 2.5.2+win64 on 2023-07-05 at 21:25:47 UTC

; 

; external perimeters extrusion width = 0.45mm
; perimeters extrusion width = 0.45mm
; infill extrusion width = 0.45mm
; solid infill extrusion width = 0.45mm
; top infill extrusion width = 0.40mm
; support material extrusion width = 0.35mm
; first layer extrusion width = 0.42mm

M107 ; disable fan
;TYPE:Custom
; Initial setups
G90 ; use absolute coordinates
M83 ; extruder relative mode
M220 S100 ; reset speed factor to 100%
M221 S100 ; reset extrusion rate to 100%

; Set the heating
M190 S65 ; wait for bed to heat up
M104 S210 ; start nozzle heating but don't wait

; Home
G1 Z3 F3000 ; move z up little to prevent scratching of surface
G28 ; home all axes
G1 X3 Y3 F5000 ; move to corner of the bed to avoid ooze over centre

; Wait for final heating
M109 S210 ; wait for the nozzle to heat up
M190 S65 ; wait for the bed to heat up

; Return to prime position, Prime line routine
G92 E0 ; Reset Extruder
G1 Z3 F3000 ; move z up little to prevent scratching of surface
G1 X10 Y.5 Z0.25 F5000.0 ; Move to start position
G1 X100 Y.5 Z0.25 F1500.0 E15 ; Draw the first line
G1 X100 Y.2 Z0.25 F5000.0 ; Move to side a little
G1 X10 Y.2 Z0.25 F1500.0 E30 ; Draw the second line
G92 E0 ; Reset Extruder
M221 S95
G21 ; set units to millimeters
G90 ; use absolute coordinates
M83 ; use relative distances for extrusion
; Filament gcode
M107 ; disable fan
;LAYER_CHANGE
;Z:0.3
;HEIGHT:0.3
;BEFORE_LAYER_CHANGE
;0.3
G92 E0
G1 E-5 F2100 ; retract
G1 Z.1 F7800 ; lift Z
G1 Z.3 ; move to next layer (0)
;AFTER_LAYER_CHANGE
;0.3
G1 Z.4 ; lift Z
G1 X90.846 Y92.701 ; move to first skirt point
G1 Z.3 ; restore layer Z
G1 E5 F2100 ;  ; unretract
M204 S500 ; adjust acceleration
;TYPE:Skirt/Brim
;WIDTH:0.42
G1 F1200
G1 X92.014 Y91.571 E.07206 ; skirt
G1 X96.194 Y88.453 E.23131 ; skirt
G1 X97.61 Y87.656 E.07206 ; skirt
G1 X101.961 Y85.896 E.20818 ; skirt
G1 X102.444 Y85.7 E.02313 ; skirt
G1 X104.016 Y85.288 E.07206 ; skirt
G1 X109.188 Y84.622 E.23131 ; skirt
G1 X110.812 Y84.622 E.07206 ; skirt
G1 X115.984 Y85.288 E.23131 ; skirt
G1 X117.556 Y85.7 E.07206 ; skirt
G1 X122.39 Y87.656 E.23131 ; skirt
G1 X123.806 Y88.453 E.07206 ; skirt
G1 X127.986 Y91.571 E.23131 ; skirt
G1 X129.154 Y92.701 E.07206 ; skirt
G1 X132.407 Y96.776 E.23131 ; skirt
G1 X133.25 Y98.165 E.07206 ; skirt
G1 X135.363 Y102.933 E.23131 ; skirt
G1 X135.827 Y104.49 E.07206 ; skirt
G1 X136.662 Y109.637 E.23131 ; skirt
G1 X136.716 Y111.261 E.07206 ; skirt
G1 X136.219 Y116.452 E.23131 ; skirt
G1 X135.873 Y117.999 E.07032 ; skirt
G1 X130.341 Y133.37 E.72456 ; skirt
G1 X129.219 Y135.316 E.09962 ; skirt
G1 X127.203 Y136.902 E.11379 ; skirt
G1 X122.632 Y139.188 E.22669 ; skirt
G1 X119.79 Y139.859 E.12954 ; skirt
G1 X100.21 Y139.859 E.86843 ; skirt
G1 X97.368 Y139.188 E.12954 ; skirt
G1 X92.797 Y136.902 E.22669 ; skirt
G1 X90.997 Y135.559 E.09962 ; skirt
G1 X89.659 Y133.37 E.11379 ; skirt
G1 X84.127 Y117.999 E.72456 ; skirt
G1 X83.781 Y116.452 E.07032 ; skirt
G1 X83.284 Y111.261 E.23131 ; skirt
G1 X83.338 Y109.637 E.07206 ; skirt
G1 X84.173 Y104.49 E.23131 ; skirt
G1 X84.637 Y102.933 E.07206 ; skirt
G1 X86.75 Y98.165 E.23131 ; skirt
G1 X87.593 Y96.776 E.07206 ; skirt
G1 X90.809 Y92.747 E.22864 ; skirt
M204 S1000 ; adjust acceleration
; printing object first.stl id:0 copy 0
G1 E-2.5 F2100 ; retract
;WIPE_START
G1 F6240
G1 X92.014 Y91.571 E-.53846 ; wipe and retract
G1 X96.194 Y88.453 E-1.66726 ; wipe and retract
G1 X96.655 Y88.193 E-.16928 ; wipe and retract
;WIPE_END
G1 E-.125 F2100 ; retract
G1 Z.4 F7800 ; lift Z
G1 X115.218 Y104.782 ; move to first support material point
G1 Z.3 ; restore layer Z
G1 E5 F2100 ;  ; unretract
M204 S500 ; adjust acceleration
;TYPE:Support material
G1 F1200
G1 X117.504 Y104.782 E.10138 ; support material
G1 X117.504 Y117.504 E.5643 ; support material
G1 X115.218 Y117.504 E.10138 ; support material
G1 X115.218 Y119.79 E.10138 ; support material
G1 X104.782 Y119.79 E.46292 ; support material
G1 X104.782 Y117.504 E.10138 ; support material
G1 X102.496 Y117.504 E.10138 ; support material
G1 X102.496 Y104.782 E.5643 ; support material
G1 X104.782 Y104.782 E.10138 ; support material
G1 X104.782 Y102.496 E.10138 ; support material
G1 X115.218 Y102.496 E.46292 ; support material
G1 X115.218 Y104.728 E.09901 ; support material
M204 S1000 ; adjust acceleration
G1 X117.112 Y117.344 F7800 ; move to first support material point
M204 S500 ; adjust acceleration
G1 F1200
G1 X117.112 Y105.102 E.543 ; support material
G1 X116.717 Y105.102 E.01753 ; support material
G1 X116.717 Y117.184 E.5359 ; support material
G1 X116.322 Y117.184 E.01753 ; support material
G1 X116.322 Y105.102 E.5359 ; support material
G1 X115.927 Y105.102 E.01753 ; support material
G1 X115.927 Y117.184 E.5359 ; support material
G1 X115.532 Y117.184 E.01753 ; support material
G1 X115.532 Y105.102 E.5359 ; support material
G1 X115.137 Y105.102 E.01753 ; support material
G1 X115.137 Y117.184 E.5359 ; support material
G1 X114.898 Y117.184 E.01058 ; support material
G1 X114.898 Y119.47 E.10138 ; support material
G1 X114.742 Y119.47 E.00695 ; support material
G1 X114.742 Y102.816 E.73866 ; support material
G1 X114.346 Y102.816 E.01753 ; support material
G1 X114.346 Y119.47 E.73866 ; support material
G1 X113.951 Y119.47 E.01753 ; support material
G1 X113.951 Y102.816 E.73866 ; support material
G1 X113.556 Y102.816 E.01753 ; support material
G1 X113.556 Y119.47 E.73866 ; support material
G1 X113.161 Y119.47 E.01753 ; support material
G1 X113.161 Y102.816 E.73866 ; support material
G1 X112.766 Y102.816 E.01753 ; support material
G1 X112.766 Y119.47 E.73866 ; support material
G1 X112.371 Y119.47 E.01753 ; support material
G1 X112.371 Y102.816 E.73866 ; support material
G1 X111.976 Y102.816 E.01753 ; support material
G1 X111.976 Y119.47 E.73866 ; support material
G1 X111.581 Y119.47 E.01753 ; support material
G1 X111.581 Y102.816 E.73866 ; support material
G1 X111.185 Y102.816 E.01753 ; support material
G1 X111.185 Y119.47 E.73866 ; support material
G1 X110.79 Y119.47 E.01753 ; support material
G1 X110.79 Y102.816 E.73866 ; support material
G1 X110.395 Y102.816 E.01753 ; support material
G1 X110.395 Y119.47 E.73866 ; support material
G1 X110 Y119.47 E.01753 ; support material
G1 X110 Y102.816 E.73866 ; support material
G1 X109.605 Y102.816 E.01753 ; support material
G1 X109.605 Y119.47 E.73866 ; support material
G1 X109.21 Y119.47 E.01753 ; support material
G1 X109.21 Y102.816 E.73866 ; support material
G1 X108.815 Y102.816 E.01753 ; support material
G1 X108.815 Y119.47 E.73866 ; support material
G1 X108.419 Y119.47 E.01753 ; support material
G1 X108.419 Y102.816 E.73866 ; support material
G1 X108.024 Y102.816 E.01753 ; support material
G1 X108.024 Y119.47 E.73866 ; support material
G1 X107.629 Y119.47 E.01753 ; support material
G1 X107.629 Y102.816 E.73866 ; support material
G1 X107.234 Y102.816 E.01753 ; support material
G1 X107.234 Y119.47 E.73866 ; support material
G1 X106.839 Y119.47 E.01753 ; support material
G1 X106.839 Y102.816 E.73866 ; support material
G1 X106.444 Y102.816 E.01753 ; support material
G1 X106.444 Y119.47 E.73866 ; support material
G1 X106.049 Y119.47 E.01753 ; support material
G1 X106.049 Y102.816 E.73866 ; support material
G1 X105.654 Y102.816 E.01753 ; support material
G1 X105.654 Y119.47 E.73866 ; support material
G1 X105.258 Y119.47 E.01753 ; support material
G1 X105.258 Y102.816 E.73866 ; support material
G1 X105.102 Y102.816 E.00695 ; support material
G1 X105.102 Y105.102 E.10138 ; support material
G1 X104.863 Y105.102 E.01058 ; support material
G1 X104.863 Y117.184 E.5359 ; support material
G1 X104.468 Y117.184 E.01753 ; support material
G1 X104.468 Y105.102 E.5359 ; support material
G1 X104.073 Y105.102 E.01753 ; support material
G1 X104.073 Y117.184 E.5359 ; support material
G1 X103.678 Y117.184 E.01753 ; support material
G1 X103.678 Y105.102 E.5359 ; support material
G1 X103.283 Y105.102 E.01753 ; support material
G1 X103.283 Y117.184 E.5359 ; support material
G1 X102.888 Y117.184 E.01753 ; support material
G1 X102.888 Y104.942 E.543 ; support material
M204 S1000 ; adjust acceleration
G1 E-2.5 F2100 ; retract
;WIPE_START
G1 F6240
G1 X102.888 Y112.37 E-2.375 ; wipe and retract
;WIPE_END
G1 E-.125 F2100 ; retract
G1 Z.4 F7800 ; lift Z
G1 X103.79 Y120.781 ; move to first support material point
G1 Z.3 ; restore layer Z
G1 E5 F2100 ;  ; unretract
M204 S500 ; adjust acceleration
G1 F1200
G1 X106.076 Y120.781 E.10138 ; support material
G1 X106.076 Y123.067 E.10138 ; support material
G1 X113.924 Y123.067 E.34811 ; support material
G1 X113.924 Y120.781 E.10138 ; support material
G1 X116.21 Y120.781 E.10138 ; support material
G1 X116.21 Y118.495 E.10138 ; support material
G1 X121.389 Y118.495 E.22973 ; support material
G1 X120.744 Y119.625 E.05769 ; support material
G1 X120.715 Y119.735 E.00503 ; support material
G1 X120.715 Y128.687 E.39707 ; support material
G1 X121.221 Y128.92 E.0247 ; support material
G1 X124.361 Y126.24 E.1831 ; support material
G1 X124.361 Y131.218 E.22078 ; support material
G1 X119.79 Y131.218 E.20276 ; support material
G1 X119.79 Y133.503 E.10138 ; support material
G1 X100.21 Y133.503 E.86843 ; support material
G1 X100.21 Y131.218 E.10138 ; support material
G1 X95.639 Y131.218 E.20276 ; support material
G1 X95.639 Y126.24 E.22077 ; support material
G1 X98.779 Y128.92 E.1831 ; support material
G1 X99.285 Y128.687 E.0247 ; support material
G1 X99.285 Y119.735 E.39707 ; support material
G1 X99.256 Y119.625 E.00503 ; support material
G1 X98.611 Y118.495 E.05769 ; support material
G1 X103.79 Y118.495 E.22973 ; support material
G1 X103.79 Y120.728 E.09901 ; support material
M204 S1000 ; adjust acceleration
G1 E-2.5 F2100 ; retract
;WIPE_START
G1 F6240
G1 X103.79 Y118.495 E-.71368 ; wipe and retract
G1 X98.611 Y118.495 E-1.65587 ; wipe and retract
G1 X98.619 Y118.51 E-.00544 ; wipe and retract
;WIPE_END
G1 E-.125 F2100 ; retract
G1 Z.4 F7800 ; lift Z
G1 X123.83 Y131.058 ; move to first support material point
G1 Z.3 ; restore layer Z
G1 E5 F2100 ;  ; unretract
M204 S500 ; adjust acceleration
G1 F1200
G1 X123.83 Y127.114 E.17491 ; support material
G1 X123.434 Y127.451 E.02304 ; support material
G1 X123.434 Y130.898 E.15286 ; support material
G1 X123.039 Y130.898 E.01753 ; support material
G1 X123.039 Y127.789 E.1379 ; support material
G1 X122.644 Y128.126 E.02304 ; support material
G1 X122.644 Y130.898 E.12294 ; support material
G1 X122.249 Y130.898 E.01753 ; support material
G1 X122.249 Y128.463 E.10799 ; support material
G1 X121.854 Y128.8 E.02304 ; support material
G1 X121.854 Y130.898 E.09303 ; support material
G1 X121.459 Y130.898 E.01753 ; support material
G1 X121.459 Y129.137 E.07808 ; support material
G1 X121.273 Y129.296 E.01086 ; support material
G1 X121.064 Y129.2 E.0102 ; support material
G1 X121.064 Y130.898 E.0753 ; support material
G1 X120.669 Y130.898 E.01753 ; support material
G1 X120.669 Y129.018 E.08338 ; support material
G1 X120.395 Y128.891 E.01337 ; support material
G1 X120.395 Y119.693 E.40801 ; support material
G1 X120.445 Y119.502 E.00874 ; support material
G1 X120.669 Y119.112 E.01995 ; support material
G1 X120.669 Y118.815 E.01314 ; support material
G1 X120.273 Y118.815 E.01753 ; support material
G1 X120.273 Y130.898 E.5359 ; support material
G1 X119.878 Y130.898 E.01753 ; support material
G1 X119.878 Y118.815 E.5359 ; support material
G1 X119.483 Y118.815 E.01753 ; support material
G1 X119.47 Y133.183 E.63728 ; support material
G1 X119.088 Y133.183 E.01692 ; support material
G1 X119.088 Y118.815 E.63728 ; support material
G1 X118.693 Y118.815 E.01753 ; support material
G1 X118.693 Y133.183 E.63728 ; support material
G1 X118.298 Y133.183 E.01753 ; support material
G1 X118.298 Y118.815 E.63728 ; support material
G1 X117.903 Y118.815 E.01753 ; support material
G1 X117.903 Y133.183 E.63728 ; support material
G1 X117.508 Y133.183 E.01753 ; support material
G1 X117.508 Y118.815 E.63728 ; support material
G1 X117.112 Y118.815 E.01753 ; support material
G1 X117.112 Y133.183 E.63728 ; support material
G1 X116.717 Y133.183 E.01753 ; support material
G1 X116.717 Y118.815 E.63728 ; support material
G1 X116.53 Y118.815 E.00831 ; support material
G1 X116.53 Y121.101 E.10138 ; support material
G1 X116.322 Y121.101 E.00921 ; support material
G1 X116.322 Y133.183 E.5359 ; support material
G1 X115.927 Y133.183 E.01753 ; support material
G1 X115.927 Y121.101 E.5359 ; support material
G1 X115.532 Y121.101 E.01753 ; support material
G1 X115.532 Y133.183 E.5359 ; support material
G1 X115.137 Y133.183 E.01753 ; support material
G1 X115.137 Y121.101 E.5359 ; support material
G1 X114.742 Y121.101 E.01753 ; support material
G1 X114.742 Y133.183 E.5359 ; support material
G1 X114.346 Y133.183 E.01753 ; support material
G1 X114.346 Y121.101 E.5359 ; support material
G1 X114.244 Y121.101 E.00454 ; support material
G1 X114.244 Y123.387 E.10138 ; support material
G1 X113.951 Y123.387 E.01299 ; support material
G1 X113.951 Y133.183 E.43452 ; support material
G1 X113.556 Y133.183 E.01753 ; support material
G1 X113.556 Y123.387 E.43452 ; support material
G1 X113.161 Y123.387 E.01753 ; support material
G1 X113.161 Y133.183 E.43452 ; support material
G1 X112.766 Y133.183 E.01753 ; support material
G1 X112.766 Y123.387 E.43452 ; support material
G1 X112.371 Y123.387 E.01753 ; support material
G1 X112.371 Y133.183 E.43452 ; support material
G1 X111.976 Y133.183 E.01753 ; support material
G1 X111.976 Y123.387 E.43452 ; support material
G1 X111.581 Y123.387 E.01753 ; support material
G1 X111.581 Y133.183 E.43452 ; support material
G1 X111.185 Y133.183 E.01753 ; support material
G1 X111.185 Y123.387 E.43452 ; support material
G1 X110.79 Y123.387 E.01753 ; support material
G1 X110.79 Y133.183 E.43452 ; support material
G1 X110.395 Y133.183 E.01753 ; support material
G1 X110.395 Y123.387 E.43452 ; support material
G1 X110 Y123.387 E.01753 ; support material
G1 X110 Y133.183 E.43452 ; support material
G1 X109.605 Y133.183 E.01753 ; support material
G1 X109.605 Y123.387 E.43452 ; support material
G1 X109.21 Y123.387 E.01753 ; support material
G1 X109.21 Y133.183 E.43452 ; support material
G1 X108.815 Y133.183 E.01753 ; support material
G1 X108.815 Y123.387 E.43452 ; support material
G1 X108.419 Y123.387 E.01753 ; support material
G1 X108.419 Y133.183 E.43452 ; support material
G1 X108.024 Y133.183 E.01753 ; support material
G1 X108.024 Y123.387 E.43452 ; support material
G1 X107.629 Y123.387 E.01753 ; support material
G1 X107.629 Y133.183 E.43452 ; support material
G1 X107.234 Y133.183 E.01753 ; support material
G1 X107.234 Y123.387 E.43452 ; support material
G1 X106.839 Y123.387 E.01753 ; support material
G1 X106.839 Y133.183 E.43452 ; support material
G1 X106.444 Y133.183 E.01753 ; support material
G1 X106.444 Y123.387 E.43452 ; support material
G1 X106.049 Y123.387 E.01753 ; support material
G1 X106.049 Y133.183 E.43452 ; support material
G1 X105.654 Y133.183 E.01753 ; support material
G1 X105.654 Y121.101 E.5359 ; support material
G1 X105.258 Y121.101 E.01753 ; support material
G1 X105.258 Y133.183 E.5359 ; support material
G1 X104.863 Y133.183 E.01753 ; support material
G1 X104.863 Y121.101 E.5359 ; support material
G1 X104.468 Y121.101 E.01753 ; support material
G1 X104.468 Y133.183 E.5359 ; support material
G1 X104.073 Y133.183 E.01753 ; support material
G1 X104.073 Y121.101 E.5359 ; support material
G1 X103.678 Y121.101 E.01753 ; support material
G1 X103.678 Y133.183 E.5359 ; support material
G1 X103.283 Y133.183 E.01753 ; support material
G1 X103.283 Y118.815 E.63728 ; support material
G1 X102.888 Y118.815 E.01753 ; support material
G1 X102.888 Y133.183 E.63728 ; support material
G1 X102.492 Y133.183 E.01753 ; support material
G1 X102.492 Y118.815 E.63728 ; support material
G1 X102.097 Y118.815 E.01753 ; support material
G1 X102.097 Y133.183 E.63728 ; support material
G1 X101.702 Y133.183 E.01753 ; support material
G1 X101.702 Y118.815 E.63728 ; support material
