; generated by PrusaSlicer 2.5.2+win64 on 2023-07-03 at 20:28:30 UTC

; 

; external perimeters extrusion width = 0.45mm
; perimeters extrusion width = 0.45mm
; infill extrusion width = 0.45mm
; solid infill extrusion width = 0.45mm
; top infill extrusion width = 0.40mm
; first layer extrusion width = 0.42mm

M107 ; disable fan
;TYPE:Custom
; Initial setups
G90 ; use absolute coordinates
M83 ; extruder relative mode
M220 S100 ; reset speed factor to 100%
M221 S100 ; reset extrusion rate to 100%

; Set the heating
M190 S65 ; wait for bed to heat up
M104 S210 ; start nozzle heating but don't wait

; Home
G1 Z3 F3000 ; move z up little to prevent scratching of surface
G28 ; home all axes
G1 X3 Y3 F5000 ; move to corner of the bed to avoid ooze over centre

; Wait for final heating
M109 S210 ; wait for the nozzle to heat up
M190 S65 ; wait for the bed to heat up

; Return to prime position, Prime line routine
G92 E0 ; Reset Extruder
G1 Z3 F3000 ; move z up little to prevent scratching of surface
G1 X10 Y.5 Z0.25 F5000.0 ; Move to start position
G1 X100 Y.5 Z0.25 F1500.0 E15 ; Draw the first line
G1 X100 Y.2 Z0.25 F5000.0 ; Move to side a little
G1 X10 Y.2 Z0.25 F1500.0 E30 ; Draw the second line
G92 E0 ; Reset Extruder
M221 S95
G21 ; set units to millimeters
G90 ; use absolute coordinates
M83 ; use relative distances for extrusion
; Filament gcode
M107 ; disable fan
;LAYER_CHANGE
;Z:0.3
;HEIGHT:0.3
;BEFORE_LAYER_CHANGE
;0.3
G92 E0
G1 E-5 F2100 ; retract
G1 Z.1 F7800 ; lift Z
G1 Z.3 ; move to next layer (0)
;AFTER_LAYER_CHANGE
;0.3
G1 Z.4 ; lift Z
G1 X89.446 Y92.172 ; move to first skirt point
G1 Z.3 ; restore layer Z
G1 E5 F2100 ;  ; unretract
M204 S500 ; adjust acceleration
;TYPE:Skirt/Brim
;WIDTH:0.42
G1 F1200
G1 X91.931 Y90.265 E.13895 ; skirt
G1 X93.368 Y89.436 E.07359 ; skirt
G1 X96.262 Y88.237 E.13895 ; skirt
G1 X97.865 Y87.808 E.07359 ; skirt
G1 X101.8 Y87.344 E.17576 ; skirt
G1 X118.2 Y87.344 E.72742 ; skirt
G1 X119.03 Y87.399 E.03687 ; skirt
G1 X122.135 Y87.808 E.13895 ; skirt
G1 X123.738 Y88.237 E.07359 ; skirt
G1 X126.632 Y89.436 E.13895 ; skirt
G1 X128.069 Y90.265 E.07359 ; skirt
G1 X130.448 Y92.091 E.13299 ; skirt
G1 X131.728 Y93.346 E.0795 ; skirt
G1 X133.635 Y95.831 E.13895 ; skirt
G1 X134.464 Y97.268 E.07359 ; skirt
G1 X135.663 Y100.162 E.13895 ; skirt
G1 X136.092 Y101.765 E.07359 ; skirt
G1 X136.556 Y105.7 E.17576 ; skirt
G1 X136.501 Y115.13 E.41825 ; skirt
G1 X136.092 Y118.235 E.13895 ; skirt
G1 X135.663 Y119.838 E.07359 ; skirt
G1 X134.464 Y122.732 E.13895 ; skirt
G1 X133.635 Y124.169 E.07359 ; skirt
G1 X131.728 Y126.654 E.13895 ; skirt
G1 X130.554 Y127.828 E.07359 ; skirt
G1 X128.069 Y129.735 E.13895 ; skirt
G1 X126.632 Y130.564 E.07359 ; skirt
G1 X123.738 Y131.763 E.13895 ; skirt
G1 X122.135 Y132.192 E.07359 ; skirt
G1 X119.03 Y132.601 E.13895 ; skirt
G1 X118.2 Y132.656 E.03687 ; skirt
G1 X101.8 Y132.656 E.72742 ; skirt
G1 X98.418 Y132.315 E.15076 ; skirt
G1 X97.031 Y131.998 E.06313 ; skirt
G1 X94.494 Y131.111 E.11919 ; skirt
G1 X93.212 Y130.493 E.06313 ; skirt
G1 X90.937 Y129.063 E.11919 ; skirt
G1 X89.824 Y128.176 E.06313 ; skirt
G1 X87.924 Y126.276 E.11919 ; skirt
G1 X87.037 Y125.163 E.06313 ; skirt
G1 X85.607 Y122.888 E.11919 ; skirt
G1 X84.989 Y121.606 E.06313 ; skirt
G1 X84.102 Y119.069 E.11919 ; skirt
G1 X83.785 Y117.682 E.06313 ; skirt
G1 X83.444 Y114.3 E.15076 ; skirt
G1 X83.499 Y104.87 E.41825 ; skirt
G1 X83.908 Y101.765 E.13895 ; skirt
G1 X84.337 Y100.162 E.07359 ; skirt
G1 X85.536 Y97.268 E.13895 ; skirt
G1 X86.365 Y95.831 E.07359 ; skirt
G1 X88.272 Y93.346 E.13895 ; skirt
G1 X89.403 Y92.215 E.07093 ; skirt
M204 S1000 ; adjust acceleration
; printing object first.stl id:0 copy 0
G1 E-2.5 F2100 ; retract
;WIPE_START
G1 F6240
G1 X91.931 Y90.265 E-1.02056 ; wipe and retract
G1 X93.368 Y89.436 E-.53045 ; wipe and retract
G1 X95.749 Y88.45 E-.82399 ; wipe and retract
;WIPE_END
G1 E-.125 F2100 ; retract
G1 Z.4 F7800 ; lift Z
G1 X93.972 Y97.872 ; move to first perimeter point
G1 Z.3 ; restore layer Z
G1 E5 F2100 ;  ; unretract
M204 S500 ; adjust acceleration
;TYPE:Perimeter
;WIDTH:0.42
G1 F1200
G1 X96.265 Y96.112 E.12819 ; perimeter
G1 X98.935 Y95.006 E.12819 ; perimeter
G1 X101.86 Y94.621 E.13089 ; perimeter
G1 X107.362 Y94.621 E.24402 ; perimeter
;WIDTH:0.461957
G1 X107.462 Y94.642 E.00506 ; perimeter
;WIDTH:0.503914
G1 X107.561 Y94.663 E.00559 ; perimeter
;WIDTH:0.545871
G1 X107.661 Y94.684 E.00612 ; perimeter
;WIDTH:0.587828
G1 X107.761 Y94.705 E.00666 ; perimeter
G1 X108.46 Y94.682 E.04564 ; perimeter
;WIDTH:0.542054
G1 X109.158 Y94.659 E.04164 ; perimeter
;WIDTH:0.49628
G1 X109.857 Y94.636 E.03765 ; perimeter
;WIDTH:0.450506
G1 X110.143 Y94.636 E.01379 ; perimeter
;WIDTH:0.49628
G1 X110.842 Y94.659 E.03765 ; perimeter
;WIDTH:0.542054
G1 X111.54 Y94.682 E.04164 ; perimeter
;WIDTH:0.587828
G1 X112.239 Y94.705 E.04563 ; perimeter
G1 X112.339 Y94.684 E.00666 ; perimeter
;WIDTH:0.545871
G1 X112.439 Y94.663 E.00612 ; perimeter
;WIDTH:0.503914
G1 X112.538 Y94.642 E.00559 ; perimeter
;WIDTH:0.461957
G1 X112.638 Y94.621 E.00506 ; perimeter
;WIDTH:0.42
G1 X118.14 Y94.621 E.24402 ; perimeter
G1 X121.065 Y95.006 E.13089 ; perimeter
G1 X123.735 Y96.112 E.12819 ; perimeter
G1 X126.028 Y97.872 E.12819 ; perimeter
G1 X127.788 Y100.165 E.12819 ; perimeter
G1 X128.894 Y102.835 E.12819 ; perimeter
G1 X129.146 Y104.75 E.08568 ; perimeter
G1 X129.279 Y105.918 E.05216 ; perimeter
G1 X129.279 Y114.24 E.36909 ; perimeter
G1 X128.894 Y117.165 E.13089 ; perimeter
G1 X127.788 Y119.835 E.12819 ; perimeter
G1 X126.028 Y122.128 E.12819 ; perimeter
G1 X123.735 Y123.888 E.12819 ; perimeter
G1 X121.065 Y124.994 E.12819 ; perimeter
G1 X118.14 Y125.379 E.13089 ; perimeter
G1 X112.638 Y125.379 E.24401 ; perimeter
;WIDTH:0.461957
G1 X112.538 Y125.358 E.00506 ; perimeter
;WIDTH:0.503914
G1 X112.439 Y125.337 E.00559 ; perimeter
;WIDTH:0.545871
G1 X112.339 Y125.316 E.00612 ; perimeter
;WIDTH:0.587828
G1 X112.239 Y125.295 E.00666 ; perimeter
G1 X111.54 Y125.318 E.04564 ; perimeter
;WIDTH:0.542053
G1 X110.842 Y125.341 E.04164 ; perimeter
;WIDTH:0.496279
G1 X110.143 Y125.364 E.03765 ; perimeter
;WIDTH:0.450505
G1 X109.857 Y125.364 E.01379 ; perimeter
;WIDTH:0.496278
G1 X109.158 Y125.341 E.03765 ; perimeter
;WIDTH:0.542053
G1 X108.46 Y125.318 E.04164 ; perimeter
;WIDTH:0.587828
G1 X107.761 Y125.295 E.04564 ; perimeter
G1 X107.661 Y125.316 E.00666 ; perimeter
;WIDTH:0.545871
G1 X107.561 Y125.337 E.00612 ; perimeter
;WIDTH:0.503914
G1 X107.462 Y125.358 E.00559 ; perimeter
;WIDTH:0.461957
G1 X107.362 Y125.379 E.00506 ; perimeter
;WIDTH:0.42
G1 X101.852 Y125.379 E.2444 ; perimeter
G1 X99.336 Y125.095 E.11229 ; perimeter
G1 X96.996 Y124.276 E.10998 ; perimeter
G1 X94.896 Y122.957 E.10998 ; perimeter
G1 X93.143 Y121.204 E.10998 ; perimeter
G1 X91.824 Y119.104 E.10998 ; perimeter
G1 X91.005 Y116.764 E.10998 ; perimeter
G1 X90.721 Y114.248 E.11229 ; perimeter
G1 X90.721 Y105.76 E.37648 ; perimeter
G1 X91.106 Y102.835 E.13089 ; perimeter
G1 X92.212 Y100.165 E.12819 ; perimeter
G1 X93.935 Y97.919 E.12553 ; perimeter
M204 S1000 ; adjust acceleration
G1 X93.718 Y97.618 F7800 ; move to first perimeter point
M204 S500 ; adjust acceleration
G1 F1200
G1 X96.085 Y95.802 E.13234 ; perimeter
G1 X98.842 Y94.66 E.13234 ; perimeter
G1 X101.837 Y94.266 E.134 ; perimeter
G1 X118.163 Y94.266 E.72413 ; perimeter
G1 X121.158 Y94.66 E.134 ; perimeter
G1 X123.915 Y95.802 E.13234 ; perimeter
G1 X126.282 Y97.618 E.13234 ; perimeter
G1 X128.098 Y99.985 E.13234 ; perimeter
G1 X129.24 Y102.742 E.13234 ; perimeter
G1 X129.498 Y104.703 E.08775 ; perimeter
G1 X129.634 Y105.918 E.05422 ; perimeter
G1 X129.634 Y114.263 E.37013 ; perimeter
G1 X129.24 Y117.258 E.134 ; perimeter
G1 X128.098 Y120.015 E.13234 ; perimeter
G1 X126.282 Y122.382 E.13234 ; perimeter
G1 X123.915 Y124.198 E.13234 ; perimeter
G1 X121.158 Y125.34 E.13234 ; perimeter
G1 X118.163 Y125.734 E.134 ; perimeter
G1 X101.832 Y125.734 E.72436 ; perimeter
G1 X99.256 Y125.444 E.11495 ; perimeter
G1 X96.84 Y124.599 E.11353 ; perimeter
G1 X94.673 Y123.237 E.11353 ; perimeter
G1 X92.863 Y121.427 E.11353 ; perimeter
G1 X91.501 Y119.26 E.11353 ; perimeter
G1 X90.656 Y116.844 E.11353 ; perimeter
G1 X90.366 Y114.268 E.11495 ; perimeter
G1 X90.366 Y105.737 E.3784 ; perimeter
G1 X90.76 Y102.742 E.134 ; perimeter
G1 X91.902 Y99.985 E.13234 ; perimeter
G1 X93.682 Y97.666 E.12968 ; perimeter
M204 S1000 ; adjust acceleration
G1 X93.464 Y97.364 F7800 ; move to first perimeter point
M204 S500 ; adjust acceleration
;TYPE:External perimeter
G1 F1200
G1 X95.906 Y95.491 E.13649 ; perimeter
G1 X98.749 Y94.313 E.13649 ; perimeter
G1 X101.814 Y93.91 E.13711 ; perimeter
G1 X118.186 Y93.91 E.7262 ; perimeter
G1 X121.251 Y94.313 E.13711 ; perimeter
G1 X124.094 Y95.491 E.13649 ; perimeter
G1 X126.536 Y97.364 E.13649 ; perimeter
G1 X128.409 Y99.806 E.13649 ; perimeter
G1 X129.587 Y102.649 E.13649 ; perimeter
G1 X129.851 Y104.657 E.08983 ; perimeter
G1 X129.99 Y105.918 E.05628 ; perimeter
G1 X129.99 Y114.286 E.37116 ; perimeter
G1 X129.587 Y117.351 E.13711 ; perimeter
G1 X128.409 Y120.194 E.13649 ; perimeter
G1 X126.536 Y122.636 E.13649 ; perimeter
G1 X124.094 Y124.509 E.13649 ; perimeter
G1 X121.251 Y125.687 E.13649 ; perimeter
G1 X118.186 Y126.09 E.13711 ; perimeter
G1 X101.812 Y126.09 E.72628 ; perimeter
G1 X99.177 Y125.793 E.11761 ; perimeter
G1 X96.685 Y124.921 E.11709 ; perimeter
G1 X94.45 Y123.517 E.11709 ; perimeter
G1 X92.583 Y121.65 E.11709 ; perimeter
G1 X91.179 Y119.415 E.11709 ; perimeter
G1 X90.307 Y116.923 E.11709 ; perimeter
G1 X90.01 Y114.288 E.11761 ; perimeter
G1 X90.01 Y105.714 E.38032 ; perimeter
G1 X90.413 Y102.649 E.13711 ; perimeter
G1 X91.591 Y99.806 E.13649 ; perimeter
G1 X93.428 Y97.412 E.13383 ; perimeter
M204 S1000 ; adjust acceleration
G1 X93.851 Y97.468 F7800 ; move inwards before travel
G1 E-2.5 F2100 ; retract
;WIPE_START
G1 F6240
G1 X95.906 Y95.491 E-1.0024 ; wipe and retract
G1 X98.749 Y94.313 E-.98386 ; wipe and retract
G1 X99.954 Y94.155 E-.38874 ; wipe and retract
;WIPE_END
G1 E-.125 F2100 ; retract
G1 Z.4 F7800 ; lift Z
G1 X97.055 Y102.494 ; move to first perimeter point
G1 Z.3 ; restore layer Z
G1 E5 F2100 ;  ; unretract
M204 S500 ; adjust acceleration
;TYPE:Perimeter
G1 F1200
G1 X99.337 Y99.501 E.16696 ; perimeter
G1 X99.501 Y99.337 E.01029 ; perimeter
G1 X102.417 Y97.099 E.16306 ; perimeter
G1 X102.618 Y96.983 E.0103 ; perimeter
G1 X106.015 Y95.576 E.16306 ; perimeter
G1 X106.239 Y95.516 E.0103 ; perimeter
G1 X107.41 Y95.362 E.0524 ; perimeter
;WIDTH:0.461957
G1 X107.507 Y95.328 E.00506 ; perimeter
;WIDTH:0.503914
G1 X107.603 Y95.294 E.00559 ; perimeter
;WIDTH:0.545871
G1 X107.699 Y95.26 E.00612 ; perimeter
;WIDTH:0.587828
G1 X107.795 Y95.226 E.00666 ; perimeter
G1 X108.491 Y95.158 E.04564 ; perimeter
;WIDTH:0.542054
G1 X109.186 Y95.089 E.04164 ; perimeter
;WIDTH:0.49628
G1 X109.882 Y95.021 E.03765 ; perimeter
;WIDTH:0.450506
G1 X110.118 Y95.021 E.01137 ; perimeter
;WIDTH:0.49628
G1 X110.814 Y95.089 E.03765 ; perimeter
;WIDTH:0.542054
G1 X111.509 Y95.158 E.04164 ; perimeter
;WIDTH:0.587828
G1 X112.205 Y95.226 E.04563 ; perimeter
G1 X112.301 Y95.26 E.00666 ; perimeter
;WIDTH:0.545871
G1 X112.397 Y95.294 E.00612 ; perimeter
;WIDTH:0.503914
G1 X112.493 Y95.328 E.00559 ; perimeter
;WIDTH:0.461957
G1 X112.59 Y95.362 E.00506 ; perimeter
;WIDTH:0.42
G1 X113.761 Y95.516 E.0524 ; perimeter
G1 X113.985 Y95.576 E.0103 ; perimeter
G1 X117.382 Y96.983 E.16306 ; perimeter
G1 X117.583 Y97.099 E.0103 ; perimeter
G1 X120.499 Y99.337 E.16306 ; perimeter
G1 X120.713 Y99.565 E.01387 ; perimeter
G1 X122.901 Y102.417 E.15946 ; perimeter
G1 X123.017 Y102.618 E.01029 ; perimeter
G1 X124.424 Y106.015 E.16306 ; perimeter
G1 X124.484 Y106.239 E.0103 ; perimeter
G1 X124.972 Y110 E.16821 ; perimeter
G1 X124.484 Y113.763 E.16829 ; perimeter
G1 X124.424 Y113.985 E.01022 ; perimeter
G1 X123.017 Y117.382 E.16306 ; perimeter
G1 X122.901 Y117.583 E.0103 ; perimeter
G1 X120.663 Y120.499 E.16306 ; perimeter
G1 X120.499 Y120.663 E.01029 ; perimeter
G1 X117.583 Y122.901 E.16306 ; perimeter
G1 X117.382 Y123.017 E.0103 ; perimeter
G1 X113.985 Y124.424 E.16306 ; perimeter
G1 X113.761 Y124.484 E.0103 ; perimeter
G1 X112.59 Y124.638 E.0524 ; perimeter
;WIDTH:0.461957
G1 X112.493 Y124.672 E.00506 ; perimeter
;WIDTH:0.503914
G1 X112.397 Y124.706 E.00559 ; perimeter
;WIDTH:0.545871
G1 X112.301 Y124.74 E.00612 ; perimeter
;WIDTH:0.587828
G1 X112.205 Y124.774 E.00666 ; perimeter
G1 X111.509 Y124.842 E.04564 ; perimeter
;WIDTH:0.542053
G1 X110.814 Y124.911 E.04164 ; perimeter
;WIDTH:0.496279
G1 X110.118 Y124.979 E.03765 ; perimeter
;WIDTH:0.450505
G1 X109.882 Y124.979 E.01137 ; perimeter
;WIDTH:0.496278
G1 X109.186 Y124.911 E.03765 ; perimeter
;WIDTH:0.542053
G1 X108.491 Y124.842 E.04164 ; perimeter
;WIDTH:0.587828
G1 X107.795 Y124.774 E.04564 ; perimeter
G1 X107.699 Y124.74 E.00666 ; perimeter
;WIDTH:0.545871
G1 X107.603 Y124.706 E.00612 ; perimeter
;WIDTH:0.503914
G1 X107.507 Y124.672 E.00559 ; perimeter
;WIDTH:0.461957
G1 X107.41 Y124.638 E.00506 ; perimeter
;WIDTH:0.42
G1 X106.239 Y124.484 E.0524 ; perimeter
G1 X106.015 Y124.424 E.0103 ; perimeter
G1 X102.618 Y123.017 E.16306 ; perimeter
G1 X102.417 Y122.901 E.0103 ; perimeter
G1 X99.501 Y120.663 E.16306 ; perimeter
G1 X99.337 Y120.499 E.01029 ; perimeter
G1 X97.099 Y117.583 E.16306 ; perimeter
G1 X96.778 Y116.887 E.03398 ; perimeter
G1 X95.576 Y113.985 E.13932 ; perimeter
G1 X95.516 Y113.761 E.0103 ; perimeter
G1 X95.036 Y110.116 E.16306 ; perimeter
G1 X95.036 Y109.884 E.01029 ; perimeter
G1 X95.516 Y106.237 E.16314 ; perimeter
G1 X95.576 Y106.015 E.01022 ; perimeter
G1 X97.024 Y102.546 E.16674 ; perimeter
M204 S1000 ; adjust acceleration
G1 X97.359 Y102.672 F7800 ; move to first perimeter point
M204 S500 ; adjust acceleration
G1 F1200
G1 X99.619 Y99.717 E.16501 ; perimeter
G1 X99.717 Y99.619 E.00617 ; perimeter
G1 X102.634 Y97.381 E.16306 ; perimeter
G1 X102.755 Y97.311 E.00618 ; perimeter
G1 X106.151 Y95.904 E.16306 ; perimeter
G1 X106.286 Y95.868 E.00618 ; perimeter
G1 X109.93 Y95.389 E.16306 ; perimeter
G1 X110.07 Y95.389 E.00617 ; perimeter
G1 X113.714 Y95.868 E.16306 ; perimeter
G1 X113.849 Y95.904 E.00618 ; perimeter
G1 X117.245 Y97.311 E.16306 ; perimeter
G1 X117.366 Y97.381 E.00618 ; perimeter
G1 X120.283 Y99.619 E.16306 ; perimeter
G1 X120.43 Y99.782 E.00976 ; perimeter
G1 X122.619 Y102.634 E.15946 ; perimeter
G1 X122.689 Y102.755 E.00618 ; perimeter
G1 X124.096 Y106.151 E.16306 ; perimeter
G1 X124.132 Y106.286 E.00618 ; perimeter
G1 X124.611 Y109.93 E.16306 ; perimeter
G1 X124.611 Y110.07 E.00617 ; perimeter
G1 X124.132 Y113.716 E.16311 ; perimeter
G1 X124.096 Y113.849 E.00613 ; perimeter
G1 X122.689 Y117.245 E.16306 ; perimeter
G1 X122.619 Y117.366 E.00618 ; perimeter
G1 X120.381 Y120.283 E.16306 ; perimeter
G1 X120.283 Y120.381 E.00617 ; perimeter
G1 X117.366 Y122.619 E.16306 ; perimeter
G1 X117.245 Y122.689 E.00618 ; perimeter
G1 X113.849 Y124.096 E.16306 ; perimeter
G1 X113.714 Y124.132 E.00618 ; perimeter
G1 X110.07 Y124.611 E.16306 ; perimeter
G1 X109.93 Y124.611 E.00617 ; perimeter
G1 X106.286 Y124.132 E.16306 ; perimeter
G1 X106.151 Y124.096 E.00618 ; perimeter
G1 X102.755 Y122.689 E.16306 ; perimeter
G1 X102.634 Y122.619 E.00618 ; perimeter
G1 X99.717 Y120.381 E.16306 ; perimeter
G1 X99.619 Y120.283 E.00617 ; perimeter
G1 X97.381 Y117.366 E.16306 ; perimeter
G1 X97.106 Y116.751 E.02988 ; perimeter
G1 X95.904 Y113.849 E.13932 ; perimeter
G1 X95.868 Y113.714 E.00618 ; perimeter
G1 X95.389 Y110.07 E.16306 ; perimeter
G1 X95.389 Y109.93 E.00617 ; perimeter
G1 X95.869 Y106.284 E.16311 ; perimeter
G1 X95.904 Y106.151 E.00613 ; perimeter
G1 X97.329 Y102.724 E.1646 ; perimeter
M204 S1000 ; adjust acceleration
G1 X97.663 Y102.85 F7800 ; move to first perimeter point
M204 S500 ; adjust acceleration
;TYPE:External perimeter
G1 F1200
G1 X99.901 Y99.934 E.16306 ; perimeter
G1 X102.85 Y97.663 E.1651 ; perimeter
G1 X106.287 Y96.233 E.1651 ; perimeter
G1 X110.023 Y95.741 E.16714 ; perimeter
G1 X113.713 Y96.233 E.1651 ; perimeter
