; generated by PrusaSlicer 2.5.2+win64 on 2023-07-05 at 20:01:23 UTC

; 

; external perimeters extrusion width = 0.45mm
; perimeters extrusion width = 0.45mm
; infill extrusion width = 0.45mm
; solid infill extrusion width = 0.45mm
; top infill extrusion width = 0.40mm
; first layer extrusion width = 0.42mm

M107 ; disable fan
;TYPE:Custom
; Initial setups
G90 ; use absolute coordinates
M83 ; extruder relative mode
M220 S100 ; reset speed factor to 100%
M221 S100 ; reset extrusion rate to 100%

; Set the heating
M190 S65 ; wait for bed to heat up
M104 S210 ; start nozzle heating but don't wait

; Home
G1 Z3 F3000 ; move z up little to prevent scratching of surface
G28 ; home all axes
G1 X3 Y3 F5000 ; move to corner of the bed to avoid ooze over centre

; Wait for final heating
M109 S210 ; wait for the nozzle to heat up
M190 S65 ; wait for the bed to heat up

; Return to prime position, Prime line routine
G92 E0 ; Reset Extruder
G1 Z3 F3000 ; move z up little to prevent scratching of surface
G1 X10 Y.5 Z0.25 F5000.0 ; Move to start position
G1 X100 Y.5 Z0.25 F1500.0 E15 ; Draw the first line
G1 X100 Y.2 Z0.25 F5000.0 ; Move to side a little
G1 X10 Y.2 Z0.25 F1500.0 E30 ; Draw the second line
G92 E0 ; Reset Extruder
M221 S95
G21 ; set units to millimeters
G90 ; use absolute coordinates
M83 ; use relative distances for extrusion
; Filament gcode
M107 ; disable fan
;LAYER_CHANGE
;Z:0.3
;HEIGHT:0.3
;BEFORE_LAYER_CHANGE
;0.3
G92 E0
G1 E-5 F2100 ; retract
G1 Z.1 F7800 ; lift Z
G1 Z.3 ; move to next layer (0)
;AFTER_LAYER_CHANGE
;0.3
G1 Z.4 ; lift Z
G1 X91.659 Y90.704 ; move to first skirt point
G1 Z.3 ; restore layer Z
G1 E5 F2100 ;  ; unretract
M204 S500 ; adjust acceleration
;TYPE:Skirt/Brim
;WIDTH:0.42
G1 F1200
G1 X95.211 Y87.856 E.20194 ; skirt
G1 X96.419 Y87.093 E.06338 ; skirt
G1 X100.518 Y85.11 E.20194 ; skirt
G1 X101.866 Y84.636 E.06338 ; skirt
G1 X106.304 Y83.619 E.20194 ; skirt
G1 X107.724 Y83.459 E.06338 ; skirt
G1 X112.276 Y83.459 E.20194 ; skirt
G1 X113.696 Y83.619 E.06338 ; skirt
G1 X118.134 Y84.636 E.20194 ; skirt
G1 X119.482 Y85.11 E.06338 ; skirt
G1 X123.581 Y87.093 E.20194 ; skirt
G1 X124.789 Y87.856 E.06338 ; skirt
G1 X128.341 Y90.704 E.20194 ; skirt
G1 X129.578 Y92.028 E.08035 ; skirt
G1 X130.74 Y93.695 E.09015 ; skirt
G1 X131.463 Y95.059 E.06849 ; skirt
G1 X132.189 Y96.958 E.09015 ; skirt
G1 X132.562 Y98.456 E.06849 ; skirt
G1 X132.856 Y101.246 E.12441 ; skirt
G1 X132.856 Y118.626 E.77089 ; skirt
G1 X132.562 Y121.415 E.12442 ; skirt
G1 X132.189 Y122.914 E.06849 ; skirt
G1 X131.463 Y124.812 E.09015 ; skirt
G1 X130.74 Y126.177 E.06849 ; skirt
G1 X129.578 Y127.844 E.09015 ; skirt
G1 X128.657 Y128.896 E.06199 ; skirt
G1 X126.039 Y131.294 E.15749 ; skirt
G1 X125.038 Y132.044 E.05549 ; skirt
G1 X122.001 Y133.883 E.15749 ; skirt
G1 X120.872 Y134.422 E.05548 ; skirt
G1 X117.533 Y135.631 E.15749 ; skirt
G1 X116.321 Y135.939 E.05549 ; skirt
G1 X112.81 Y136.47 E.15749 ; skirt
G1 X110 Y136.541 E.12469 ; skirt
G1 X105.408 Y136.118 E.20453 ; skirt
G1 X104.181 Y135.873 E.05549 ; skirt
G1 X100.369 Y134.712 E.17679 ; skirt
G1 X99.214 Y134.231 E.05549 ; skirt
G1 X95.702 Y132.345 E.17679 ; skirt
G1 X94.664 Y131.648 E.05549 ; skirt
G1 X91.59 Y129.111 E.17679 ; skirt
G1 X90.422 Y127.844 E.07642 ; skirt
G1 X89.26 Y126.177 E.09015 ; skirt
G1 X88.537 Y124.812 E.06849 ; skirt
G1 X87.811 Y122.914 E.09015 ; skirt
G1 X87.438 Y121.415 E.06849 ; skirt
G1 X87.144 Y118.626 E.12441 ; skirt
G1 X87.144 Y101.246 E.77089 ; skirt
G1 X87.438 Y98.456 E.12442 ; skirt
G1 X87.811 Y96.958 E.06849 ; skirt
G1 X88.537 Y95.059 E.09015 ; skirt
G1 X89.26 Y93.695 E.06849 ; skirt
G1 X90.422 Y92.028 E.09015 ; skirt
G1 X91.618 Y90.748 E.07769 ; skirt
M204 S1000 ; adjust acceleration
; printing object third.stl id:0 copy 0
G1 E-2.5 F2100 ; retract
;WIPE_START
G1 F6240
G1 X95.211 Y87.856 E-1.4746 ; wipe and retract
G1 X96.419 Y87.093 E-.45685 ; wipe and retract
G1 X97.668 Y86.489 E-.44355 ; wipe and retract
;WIPE_END
G1 E-.125 F2100 ; retract
G1 Z.4 F7800 ; lift Z
G1 X96.315 Y96.298 ; move to first perimeter point
G1 Z.3 ; restore layer Z
G1 E5 F2100 ;  ; unretract
M204 S500 ; adjust acceleration
;TYPE:Perimeter
;WIDTH:0.42
G1 F1200
G1 X99.682 Y93.598 E.19144 ; perimeter
G1 X103.593 Y91.706 E.1927 ; perimeter
G1 X107.828 Y90.735 E.1927 ; perimeter
G1 X112.172 Y90.735 E.1927 ; perimeter
G1 X116.407 Y91.706 E.1927 ; perimeter
G1 X120.318 Y93.598 E.1927 ; perimeter
G1 X123.685 Y96.298 E.19144 ; perimeter
G1 X124.707 Y97.764 E.07927 ; perimeter
G1 X125.352 Y99.452 E.08015 ; perimeter
G1 X125.566 Y101.199 E.07807 ; perimeter
G1 X125.579 Y118.57 E.77047 ; perimeter
G1 X125.352 Y120.42 E.08266 ; perimeter
G1 X124.707 Y122.107 E.08015 ; perimeter
G1 X123.667 Y123.599 E.08063 ; perimeter
G1 X121.191 Y125.866 E.14893 ; perimeter
G1 X118.31 Y127.611 E.14941 ; perimeter
G1 X115.142 Y128.757 E.14941 ; perimeter
G1 X111.79 Y129.265 E.15037 ; perimeter
G1 X110.045 Y129.265 E.07739 ; perimeter
G1 X106.215 Y128.886 E.17073 ; perimeter
G1 X102.576 Y127.777 E.1687 ; perimeter
G1 X99.226 Y125.978 E.1687 ; perimeter
G1 X96.319 Y123.579 E.16716 ; perimeter
G1 X95.293 Y122.107 E.07956 ; perimeter
G1 X94.648 Y120.42 E.08015 ; perimeter
G1 X94.421 Y118.57 E.08266 ; perimeter
G1 X94.421 Y101.302 E.7659 ; perimeter
G1 X94.648 Y99.452 E.08266 ; perimeter
G1 X95.293 Y97.764 E.08015 ; perimeter
G1 X96.281 Y96.348 E.07661 ; perimeter
M204 S1000 ; adjust acceleration
G1 X96.053 Y96.053 F7800 ; move to first perimeter point
M204 S500 ; adjust acceleration
G1 F1200
G1 X99.491 Y93.296 E.19549 ; perimeter
G1 X103.475 Y91.368 E.19627 ; perimeter
G1 X107.788 Y90.38 E.19626 ; perimeter
G1 X112.212 Y90.38 E.19627 ; perimeter
G1 X116.526 Y91.368 E.19626 ; perimeter
G1 X120.509 Y93.296 E.19627 ; perimeter
G1 X123.947 Y96.053 E.19549 ; perimeter
G1 X125.023 Y97.597 E.08347 ; perimeter
G1 X125.7 Y99.366 E.08401 ; perimeter
G1 X125.919 Y101.156 E.08 ; perimeter
G1 X125.934 Y101.406 E.01109 ; perimeter
G1 X125.934 Y118.591 E.76227 ; perimeter
G1 X125.7 Y120.506 E.08555 ; perimeter
G1 X125.023 Y122.275 E.08401 ; perimeter
G1 X123.936 Y123.834 E.08431 ; perimeter
G1 X121.405 Y126.152 E.15223 ; perimeter
G1 X118.464 Y127.933 E.15253 ; perimeter
G1 X115.23 Y129.104 E.15253 ; perimeter
G1 X111.817 Y129.62 E.15312 ; perimeter
G1 X110.028 Y129.62 E.07936 ; perimeter
G1 X106.145 Y129.236 E.17307 ; perimeter
G1 X102.439 Y128.107 E.17182 ; perimeter
G1 X99.026 Y126.274 E.17182 ; perimeter
G1 X96.055 Y123.822 E.17087 ; perimeter
G1 X94.977 Y122.275 E.08365 ; perimeter
G1 X94.3 Y120.506 E.08401 ; perimeter
G1 X94.066 Y118.591 E.08555 ; perimeter
G1 X94.066 Y101.28 E.76783 ; perimeter
G1 X94.3 Y99.366 E.08555 ; perimeter
G1 X94.977 Y97.597 E.08401 ; perimeter
G1 X96.019 Y96.102 E.08081 ; perimeter
M204 S1000 ; adjust acceleration
G1 X95.791 Y95.808 F7800 ; move to first perimeter point
M204 S500 ; adjust acceleration
;TYPE:External perimeter
G1 F1200
G1 X99.3 Y92.993 E.19955 ; perimeter
G1 X103.356 Y91.031 E.19983 ; perimeter
G1 X107.747 Y90.024 E.19983 ; perimeter
G1 X112.253 Y90.024 E.19983 ; perimeter
G1 X116.644 Y91.031 E.19983 ; perimeter
G1 X120.7 Y92.993 E.19983 ; perimeter
G1 X124.209 Y95.808 E.19955 ; perimeter
G1 X125.34 Y97.429 E.08767 ; perimeter
G1 X126.048 Y99.279 E.08787 ; perimeter
G1 X126.272 Y101.113 E.08193 ; perimeter
G1 X126.29 Y101.406 E.01301 ; perimeter
G1 X126.29 Y118.613 E.76323 ; perimeter
G1 X126.048 Y120.592 E.08845 ; perimeter
G1 X125.34 Y122.443 E.08787 ; perimeter
G1 X124.205 Y124.07 E.08798 ; perimeter
G1 X121.62 Y126.438 E.15554 ; perimeter
G1 X118.618 Y128.256 E.15565 ; perimeter
G1 X115.318 Y129.45 E.15565 ; perimeter
G1 X111.844 Y129.976 E.15587 ; perimeter
G1 X110.01 Y129.976 E.08132 ; perimeter
G1 X106.075 Y129.587 E.17541 ; perimeter
G1 X102.302 Y128.437 E.17494 ; perimeter
G1 X98.827 Y126.571 E.17494 ; perimeter
G1 X95.791 Y124.065 E.17459 ; perimeter
G1 X94.66 Y122.443 E.08774 ; perimeter
G1 X93.952 Y120.592 E.08787 ; perimeter
G1 X93.71 Y118.613 E.08845 ; perimeter
G1 X93.71 Y101.259 E.76975 ; perimeter
G1 X93.952 Y99.279 E.08845 ; perimeter
G1 X94.66 Y97.429 E.08787 ; perimeter
G1 X95.756 Y95.857 E.08501 ; perimeter
M204 S1000 ; adjust acceleration
G1 X96.179 Y95.901 F7800 ; move inwards before travel
G1 E-2.5 F2100 ; retract
;WIPE_START
G1 F6240
G1 X99.3 Y92.993 E-1.45676 ; wipe and retract
G1 X101.886 Y91.742 E-.91824 ; wipe and retract
;WIPE_END
G1 E-.125 F2100 ; retract
G1 Z.4 F7800 ; lift Z
G1 X99.647 Y99.622 ; move to first perimeter point
G1 Z.3 ; restore layer Z
G1 E5 F2100 ;  ; unretract
M204 S500 ; adjust acceleration
;TYPE:Perimeter
G1 F1200
G1 X99.748 Y99.52 E.00637 ; perimeter
G1 X102.593 Y97.338 E.15901 ; perimeter
G1 X102.794 Y97.222 E.01029 ; perimeter
G1 X106.106 Y95.85 E.15901 ; perimeter
G1 X106.33 Y95.79 E.01029 ; perimeter
G1 X109.884 Y95.322 E.15901 ; perimeter
G1 X110.116 Y95.322 E.01029 ; perimeter
G1 X113.67 Y95.79 E.15901 ; perimeter
G1 X113.894 Y95.85 E.01029 ; perimeter
G1 X117.206 Y97.222 E.15901 ; perimeter
G1 X117.605 Y97.489 E.0213 ; perimeter
G1 X120.252 Y99.52 E.14796 ; perimeter
G1 X120.844 Y100.243 E.04145 ; perimeter
G1 X122.598 Y102.528 E.12778 ; perimeter
G1 X122.714 Y102.729 E.01029 ; perimeter
G1 X124.086 Y106.041 E.15901 ; perimeter
G1 X124.146 Y106.266 E.01029 ; perimeter
G1 X124.622 Y109.936 E.16415 ; perimeter
G1 X124.146 Y113.606 E.16415 ; perimeter
G1 X124.086 Y113.83 E.01029 ; perimeter
G1 X122.714 Y117.142 E.15901 ; perimeter
G1 X122.53 Y117.431 E.01519 ; perimeter
G1 X120.416 Y120.187 E.15409 ; perimeter
G1 X120.252 Y120.351 E.01029 ; perimeter
G1 X117.407 Y122.534 E.15901 ; perimeter
G1 X117.206 Y122.65 E.01029 ; perimeter
G1 X113.894 Y124.022 E.15901 ; perimeter
G1 X113.67 Y124.082 E.01029 ; perimeter
G1 X110.116 Y124.55 E.15901 ; perimeter
G1 X109.884 Y124.55 E.01029 ; perimeter
G1 X106.33 Y124.082 E.15901 ; perimeter
G1 X106.106 Y124.022 E.01029 ; perimeter
G1 X102.794 Y122.65 E.15901 ; perimeter
G1 X102.017 Y122.092 E.04242 ; perimeter
G1 X99.748 Y120.351 E.12681 ; perimeter
G1 X99.156 Y119.629 E.04145 ; perimeter
G1 X97.402 Y117.343 E.12778 ; perimeter
G1 X97.286 Y117.142 E.01029 ; perimeter
G1 X95.914 Y113.83 E.15901 ; perimeter
G1 X95.854 Y113.606 E.01029 ; perimeter
G1 X95.386 Y110.052 E.15901 ; perimeter
G1 X95.386 Y109.82 E.01029 ; perimeter
G1 X95.854 Y106.266 E.15901 ; perimeter
G1 X95.914 Y106.041 E.01029 ; perimeter
G1 X97.286 Y102.729 E.15901 ; perimeter
G1 X97.47 Y102.44 E.01519 ; perimeter
G1 X99.605 Y99.664 E.15534 ; perimeter
M204 S1000 ; adjust acceleration
G1 X99.898 Y99.869 F7800 ; move to first perimeter point
M204 S500 ; adjust acceleration
G1 F1200
G1 X102.809 Y97.62 E.16319 ; perimeter
G1 X102.93 Y97.55 E.00618 ; perimeter
G1 X106.242 Y96.178 E.15901 ; perimeter
G1 X106.376 Y96.142 E.00618 ; perimeter
G1 X109.93 Y95.674 E.15901 ; perimeter
G1 X110.07 Y95.674 E.00618 ; perimeter
G1 X113.624 Y96.142 E.15901 ; perimeter
G1 X114.559 Y96.51 E.04458 ; perimeter
G1 X117.07 Y97.55 E.12056 ; perimeter
G1 X117.389 Y97.772 E.01719 ; perimeter
G1 X120.035 Y99.802 E.14796 ; perimeter
G1 X120.562 Y100.459 E.03736 ; perimeter
G1 X122.316 Y102.745 E.12778 ; perimeter
G1 X122.385 Y102.865 E.00618 ; perimeter
G1 X123.757 Y106.177 E.15901 ; perimeter
G1 X123.793 Y106.312 E.00618 ; perimeter
G1 X124.266 Y109.936 E.1621 ; perimeter
G1 X123.793 Y113.56 E.1621 ; perimeter
G1 X123.757 Y113.694 E.00618 ; perimeter
G1 X122.385 Y117.006 E.15901 ; perimeter
G1 X122.248 Y117.215 E.01107 ; perimeter
G1 X120.134 Y119.971 E.15409 ; perimeter
G1 X120.035 Y120.069 E.00618 ; perimeter
G1 X117.191 Y122.252 E.15901 ; perimeter
G1 X117.07 Y122.321 E.00618 ; perimeter
G1 X113.758 Y123.693 E.15901 ; perimeter
G1 X113.624 Y123.729 E.00618 ; perimeter
G1 X110.07 Y124.197 E.15901 ; perimeter
G1 X109.93 Y124.197 E.00618 ; perimeter
G1 X106.376 Y123.729 E.15901 ; perimeter
G1 X106.242 Y123.693 E.00618 ; perimeter
G1 X102.93 Y122.321 E.15901 ; perimeter
G1 X102.233 Y121.81 E.03833 ; perimeter
G1 X99.965 Y120.069 E.12681 ; perimeter
G1 X99.438 Y119.412 E.03736 ; perimeter
G1 X97.684 Y117.127 E.12778 ; perimeter
G1 X97.615 Y117.006 E.00618 ; perimeter
G1 X96.243 Y113.694 E.15901 ; perimeter
G1 X96.207 Y113.56 E.00618 ; perimeter
G1 X95.739 Y110.005 E.15901 ; perimeter
G1 X95.739 Y109.866 E.00618 ; perimeter
G1 X96.207 Y106.312 E.15901 ; perimeter
G1 X96.243 Y106.177 E.00618 ; perimeter
G1 X97.615 Y102.865 E.15901 ; perimeter
G1 X97.752 Y102.657 E.01107 ; perimeter
G1 X99.857 Y99.913 E.15339 ; perimeter
M204 S1000 ; adjust acceleration
G1 X100.149 Y100.117 F7800 ; move to first perimeter point
M204 S500 ; adjust acceleration
;TYPE:External perimeter
G1 F1200
G1 X103.066 Y97.879 E.16309 ; perimeter
G1 X106.378 Y96.507 E.15901 ; perimeter
G1 X109.977 Y96.027 E.16105 ; perimeter
G1 X113.577 Y96.495 E.16105 ; perimeter
G1 X114.423 Y96.839 E.04049 ; perimeter
G1 X116.934 Y97.879 E.12056 ; perimeter
G1 X119.819 Y100.084 E.16105 ; perimeter
G1 X122.057 Y103.002 E.16309 ; perimeter
G1 X123.441 Y106.358 E.16105 ; perimeter
G1 X123.91 Y109.936 E.16004 ; perimeter
G1 X123.429 Y113.558 E.16208 ; perimeter
G1 X122.057 Y116.87 E.15901 ; perimeter
G1 X119.851 Y119.754 E.16105 ; perimeter
G1 X116.934 Y121.993 E.16309 ; perimeter
G1 X113.622 Y123.365 E.15901 ; perimeter
G1 X110.023 Y123.845 E.16105 ; perimeter
G1 X106.378 Y123.365 E.16309 ; perimeter
G1 X103.066 Y121.993 E.15901 ; perimeter
G1 X100.181 Y119.787 E.16105 ; perimeter
G1 X97.943 Y116.87 E.16309 ; perimeter
G1 X96.571 Y113.558 E.15901 ; perimeter
G1 X96.091 Y109.959 E.16105 ; perimeter
G1 X96.571 Y106.314 E.16309 ; perimeter
G1 X97.943 Y103.002 E.15901 ; perimeter
G1 X100.112 Y100.165 E.15839 ; perimeter
M204 S1000 ; adjust acceleration
G1 X100.045 Y99.731 F7800 ; move inwards before travel
G1 E-2.5 F2100 ; retract
;WIPE_START
G1 F6240
G1 X103.066 Y97.879 E-1.1941 ; wipe and retract
G1 X106.378 Y96.507 E-1.14613 ; wipe and retract
G1 X106.486 Y96.493 E-.03477 ; wipe and retract
;WIPE_END
G1 E-.125 F2100 ; retract
G1 Z.4 F7800 ; lift Z
G1 X124.794 Y98.29 ; move to first infill point
G1 Z.3 ; restore layer Z
G1 E5 F2100 ;  ; unretract
M204 S500 ; adjust acceleration
;TYPE:Solid infill
;WIDTH:0.420502
G1 F1200
G1 X120.955 Y94.451 E.24111 ; infill
G1 X120.174 Y93.825 E.04446 ; infill
G1 X119.498 Y93.498 E.03336 ; infill
G1 X124.828 Y98.828 E.3348 ; infill
G1 X125.092 Y99.517 E.03277 ; infill
G1 X125.103 Y99.606 E.00398 ; infill
G1 X118.522 Y93.026 E.41333 ; infill
G1 X117.547 Y92.554 E.04814 ; infill
G1 X125.173 Y100.18 E.47903 ; infill
G1 X125.243 Y100.754 E.02568 ; infill
G1 X116.571 Y92.082 E.54473 ; infill
G1 X116.318 Y91.959 E.0125 ; infill
G1 X115.834 Y91.848 E.02205 ; infill
G1 X125.312 Y101.326 E.59537 ; infill
G1 X125.312 Y101.83 E.02237 ; infill
G1 X115.181 Y91.699 E.63641 ; infill
G1 X114.527 Y91.549 E.02977 ; infill
G1 X125.312 Y102.334 E.67745 ; infill
G1 X125.312 Y102.837 E.02237 ; infill
G1 X113.874 Y91.399 E.7185 ; infill
G1 X113.221 Y91.249 E.02977 ; infill
G1 X125.312 Y103.341 E.75954 ; infill
G1 X125.312 Y103.844 E.02237 ; infill
G1 X112.567 Y91.1 E.80058 ; infill
G1 X112.142 Y91.002 E.01937 ; infill
G1 X111.966 Y91.002 E.00782 ; infill
G1 X125.312 Y104.348 E.83834 ; infill
G1 X125.312 Y104.852 E.02237 ; infill
G1 X122.753 Y102.293 E.16075 ; infill
G1 X122.958 Y102.622 E.01724 ; infill
G1 X123.227 Y103.27 E.03116 ; infill
G1 X125.312 Y105.355 E.131 ; infill
G1 X125.312 Y105.859 E.02237 ; infill
G1 X123.583 Y104.13 E.10863 ; infill
G1 X123.939 Y104.989 E.04133 ; infill
G1 X125.312 Y106.363 E.08626 ; infill
G1 X125.312 Y106.866 E.02237 ; infill
G1 X124.295 Y105.849 E.06389 ; infill
G1 X124.41 Y106.225 E.01745 ; infill
G1 X124.446 Y106.503 E.01247 ; infill
G1 X125.312 Y107.37 E.05442 ; infill
G1 X125.312 Y107.874 E.02237 ; infill
G1 X124.52 Y107.082 E.04973 ; infill
G1 X124.595 Y107.66 E.0259 ; infill
G1 X125.312 Y108.377 E.04504 ; infill
G1 X125.312 Y108.881 E.02237 ; infill
G1 X124.67 Y108.238 E.04035 ; infill
G1 X124.744 Y108.817 E.0259 ; infill
G1 X125.312 Y109.384 E.03566 ; infill
G1 X125.312 Y109.888 E.02237 ; infill
G1 X124.819 Y109.395 E.03096 ; infill
