; generated by K3D LA calibration v1.4b
; Written by Dmitry Sorkin @ http://k3d.tech/, Kekht and YTKAB0BP
;Bedsize: 235:235 [mm]
;Firmware (0-Marlin, 1-Klipper, 2-RRF): 1
;Z-offset: 0 [mm]
;Delta: false
;G29: false
;Temp: 210/60 [°C]
;Flow: 100
;Fan: 99.6
;Line width: 0.4 [mm]
;First layer line width: 0.4 [mm]
;Layer height: 0.2 [mm]
;Fast print speed: 200 [mm/s]
;Slow print speed: 100 [mm/s]
;First layer print speed: 60 [mm/s]
;Travel speed: 200 [mm/s]
;Segment height: 3 [mm]
; ====================
; Поддержите выход новых калибраторов, инструкций и видео!
;https://donate.stream/dmitrysorkin
; ====================
; Сегмент 10: K-Factor: 0.2
; Сегмент 9: K-Factor: 0.178
; Сегмент 8: K-Factor: 0.156
; Сегмент 7: K-Factor: 0.133
; Сегмент 6: K-Factor: 0.111
; Сегмент 5: K-Factor: 0.089
; Сегмент 4: K-Factor: 0.067
; Сегмент 3: K-Factor: 0.044
; Сегмент 2: K-Factor: 0.022
; Сегмент 1: K-Factor: 0
M104 S150 ;прогреть хотэнд до 150 градусов
M190 S60 ;прогреть стол до температуры, указанной в настройках
M109 S210 ;прогреть хотэнд до температуры, указанной в настройках
G28 ;припарковать все оси
 ;снять карту высот стола
G90 ;абсолютная система координат
G92 E0 ;сбросить координату экструдера
M220 S100 ;Множитель скорости 100%
M221 S100 ;Множитель потока взять из настроек
M82
M106 S0
G1 Z0.2
G92 Z0.2
G1 X15 Y67.5 F12000
G1 X220 E10.2275 F3600
G1 Y68.1 F3600
G1 X15 E20.455 F3600
G1 E19.45 F1800
G1 X92.8 Y142.2 F12000
G1 E20.45 F1800
G1 Y141.32 E20.5007 F3600
G1 X93.68 Y142.2 E20.5654 F3600
G1 X94.56 E20.6112 F3600
G1 X92.8 Y140.44 E20.7406 F3600
G1 Y139.55 E20.7864 F3600
G1 X95.45 Y142.2 E20.9805 F3600
G1 X96.33 E21.0262 F3600
G1 X92.8 Y138.67 E21.2851 F3600
G1 Y137.79 E21.3308 F3600
G1 X97.21 Y142.2 E21.6543 F3600
G1 X98.09 E21.7001 F3600
G1 X92.8 Y136.91 E22.0883 F3600
G1 Y136.03 E22.1341 F3600
G1 X98.98 Y142.2 E22.587 F3600
G1 X99.86 E22.6328 F3600
G1 X92.8 Y135.14 E23.1504 F3600
G1 Y134.26 E23.1962 F3600
G1 X100.74 Y142.2 E23.7785 F3600
G1 X101.62 E23.8243 F3600
G1 X92.8 Y133.38 E24.4713 F3600
G1 Y132.5 E24.5171 F3600
G1 X102.5 Y142.2 E25.2288 F3600
G1 X103.39 E25.2746 F3600
G1 X92.8 Y131.61 E26.0511 F3600
G1 Y130.73 E26.0968 F3600
G1 X104.27 Y142.2 E26.938 F3600
G1 X105.15 E26.9837 F3600
G1 X92.8 Y129.85 E27.8896 F3600
G1 Y128.97 E27.9354 F3600
G1 X106.03 Y142.2 E28.906 F3600
G1 X106.91 E28.9517 F3600
G1 X92.8 Y128.09 E29.987 F3600
G1 Y127.2 E30.0328 F3600
G1 X107.8 Y142.2 E31.1328 F3600
G1 X108.68 E31.1785 F3600
G1 X92.8 Y126.32 E32.3432 F3600
G1 Y125.44 E32.389 F3600
G1 X109.56 Y142.2 E33.6184 F3600
G1 X110.44 E33.6641 F3600
G1 X92.8 Y124.56 E34.9582 F3600
G1 Y123.68 E35.004 F3600
G1 X111.32 Y142.2 E36.3628 F3600
G1 X112.21 E36.4086 F3600
G1 X92.8 Y122.79 E37.8321 F3600
G1 Y121.91 E37.8778 F3600
G1 X113.09 Y142.2 E39.3661 F3600
G1 X113.97 E39.4118 F3600
G1 X92.8 Y121.03 E40.9648 F3600
G1 Y120.15 E41.0105 F3600
G1 X114.85 Y142.2 E42.6281 F3600
G1 X115.74 E42.6739 F3600
G1 X92.8 Y119.26 E44.3562 F3600
G1 Y118.38 E44.402 F3600
G1 X116.62 Y142.2 E46.1491 F3600
G1 X117.5 E46.1948 F3600
G1 X92.8 Y117.5 E48.0066 F3600
G1 Y116.62 E48.0523 F3600
G1 X118.38 Y142.2 E49.9288 F3600
G1 X119.26 E49.9745 F3600
G1 X92.8 Y115.74 E51.9157 F3600
G1 Y114.85 E51.9615 F3600
G1 X120.15 Y142.2 E53.9673 F3600
G1 X121.03 E54.0131 F3600
G1 X92.8 Y113.97 E56.0837 F3600
G1 Y113.09 E56.1294 F3600
G1 X121.91 Y142.2 E58.2647 F3600
G1 X122.79 E58.3105 F3600
G1 X92.8 Y112.21 E60.5104 F3600
G1 Y111.32 E60.5562 F3600
G1 X123.68 Y142.2 E62.8209 F3600
G1 X124.56 E62.8666 F3600
G1 X92.8 Y110.44 E65.196 F3600
G1 Y109.56 E65.2418 F3600
G1 X125.44 Y142.2 E67.6359 F3600
G1 X126.32 E67.6817 F3600
G1 X92.8 Y108.68 E70.1405 F3600
G1 Y107.8 E70.1862 F3600
G1 X127.2 Y142.2 E72.7097 F3600
G1 X128.09 E72.7555 F3600
G1 X92.8 Y106.91 E75.3437 F3600
G1 Y106.03 E75.3895 F3600
G1 X128.97 Y142.2 E78.0424 F3600
G1 X129.85 E78.0882 F3600
G1 X92.8 Y105.15 E80.8058 F3600
G1 Y104.27 E80.8516 F3600
G1 X130.73 Y142.2 E83.6339 F3600
G1 X131.61 E83.6796 F3600
G1 X92.8 Y103.39 E86.5267 F3600
G1 Y102.5 E86.5724 F3600
G1 X132.5 Y142.2 E89.4842 F3600
G1 X133.38 E89.53 F3600
G1 X92.8 Y101.62 E92.5064 F3600
G1 Y100.74 E92.5522 F3600
G1 X134.26 Y142.2 E95.5933 F3600
G1 X135.14 E95.6391 F3600
G1 X92.8 Y99.86 E98.7449 F3600
G1 Y98.98 E98.7907 F3600
G1 X136.03 Y142.2 E101.9613 F3600
G1 X136.91 E102.007 F3600
G1 X92.8 Y98.09 E105.2423 F3600
G1 Y97.21 E105.2881 F3600
G1 X137.79 Y142.2 E108.588 F3600
G1 X138.67 E108.6338 F3600
G1 X92.8 Y96.33 E111.9985 F3600
G1 Y95.45 E112.0442 F3600
G1 X139.55 Y142.2 E115.4736 F3600
G1 X140.44 E115.5194 F3600
G1 X92.8 Y94.56 E119.0135 F3600
G1 Y93.68 E119.0593 F3600
G1 X141.32 Y142.2 E122.6181 F3600
G1 X142.2 E122.6638 F3600
G1 X92.8 Y92.8 E126.2873 F3600
G1 X93.68 E126.3331 F3600
G1 X142.2 Y141.32 E129.8919 F3600
G1 Y140.44 E129.9376 F3600
G1 X94.56 Y92.8 E133.4317 F3600
G1 X95.45 E133.4775 F3600
G1 X142.2 Y139.55 E136.9069 F3600
G1 Y138.67 E136.9527 F3600
G1 X96.33 Y92.8 E140.3173 F3600
G1 X97.21 E140.3631 F3600
G1 X142.2 Y137.79 E143.6631 F3600
G1 Y136.91 E143.7088 F3600
G1 X98.09 Y92.8 E146.9441 F3600
G1 X98.98 E146.9899 F3600
G1 X142.2 Y136.02 E150.1604 F3600
G1 Y135.14 E150.2062 F3600
G1 X99.86 Y92.8 E153.3121 F3600
G1 X100.74 E153.3578 F3600
G1 X142.2 Y134.26 E156.399 F3600
G1 Y133.38 E156.4447 F3600
G1 X101.62 Y92.8 E159.4212 F3600
G1 X102.5 E159.4669 F3600
G1 X142.2 Y132.5 E162.3787 F3600
G1 Y131.61 E162.4245 F3600
G1 X103.39 Y92.8 E165.2715 F3600
G1 X104.27 E165.3173 F3600
G1 X142.2 Y130.73 E168.0996 F3600
G1 Y129.85 E168.1453 F3600
G1 X105.15 Y92.8 E170.863 F3600
G1 X106.03 E170.9087 F3600
G1 X142.2 Y128.97 E173.5617 F3600
G1 Y128.09 E173.6074 F3600
G1 X106.91 Y92.8 E176.1956 F3600
G1 X107.8 E176.2414 F3600
G1 X142.2 Y127.2 E178.7649 F3600
G1 Y126.32 E178.8107 F3600
G1 X108.68 Y92.8 E181.2695 F3600
G1 X109.56 E181.3152 F3600
G1 X142.2 Y125.44 E183.7093 F3600
G1 Y124.56 E183.7551 F3600
G1 X110.44 Y92.8 E186.0845 F3600
G1 X111.32 E186.1303 F3600
G1 X142.2 Y123.67 E188.3949 F3600
G1 Y122.79 E188.4407 F3600
G1 X112.21 Y92.8 E190.6407 F3600
G1 X113.09 E190.6864 F3600
G1 X142.2 Y121.91 E192.8217 F3600
G1 Y121.03 E192.8675 F3600
G1 X113.97 Y92.8 E194.9381 F3600
G1 X114.85 E194.9838 F3600
G1 X142.2 Y120.15 E196.9897 F3600
G1 Y119.26 E197.0354 F3600
G1 X115.74 Y92.8 E198.9766 F3600
G1 X116.62 E199.0224 F3600
G1 X142.2 Y118.38 E200.8988 F3600
G1 Y117.5 E200.9446 F3600
G1 X117.5 Y92.8 E202.7563 F3600
G1 X118.38 E202.8021 F3600
G1 X142.2 Y116.62 E204.5491 F3600
G1 Y115.74 E204.5949 F3600
G1 X119.26 Y92.8 E206.2772 F3600
G1 X120.15 E206.323 F3600
G1 X142.2 Y114.85 E207.9406 F3600
G1 Y113.97 E207.9864 F3600
G1 X121.03 Y92.8 E209.5393 F3600
G1 X121.91 E209.5851 F3600
G1 X142.2 Y113.09 E211.0733 F3600
G1 Y112.21 E211.1191 F3600
G1 X122.79 Y92.8 E212.5426 F3600
G1 X123.67 E212.5883 F3600
G1 X142.2 Y111.32 E213.9472 F3600
G1 Y110.44 E213.9929 F3600
G1 X124.56 Y92.8 E215.287 F3600
G1 X125.44 E215.3328 F3600
G1 X142.2 Y109.56 E216.5622 F3600
G1 Y108.68 E216.6079 F3600
G1 X126.32 Y92.8 E217.7726 F3600
G1 X127.2 E217.8184 F3600
G1 X142.2 Y107.8 E218.9184 F3600
G1 Y106.91 E218.9641 F3600
G1 X128.09 Y92.8 E219.9994 F3600
G1 X128.97 E220.0452 F3600
G1 X142.2 Y106.03 E221.0158 F3600
G1 Y105.15 E221.0615 F3600
G1 X129.85 Y92.8 E221.9674 F3600
G1 X130.73 E222.0132 F3600
G1 X142.2 Y104.27 E222.8543 F3600
G1 Y103.39 E222.9001 F3600
G1 X131.61 Y92.8 E223.6765 F3600
G1 X132.5 E223.7223 F3600
G1 X142.2 Y102.5 E224.4341 F3600
G1 Y101.62 E224.4798 F3600
G1 X133.38 Y92.8 E225.1269 F3600
G1 X134.26 E225.1726 F3600
G1 X142.2 Y100.74 E225.755 F3600
G1 Y99.86 E225.8007 F3600
G1 X135.14 Y92.8 E226.3184 F3600
G1 X136.02 E226.3641 F3600
G1 X142.2 Y98.98 E226.8171 F3600
G1 Y98.09 E226.8628 F3600
G1 X136.91 Y92.8 E227.2511 F3600
G1 X137.79 E227.2968 F3600
G1 X142.2 Y97.21 E227.6203 F3600
G1 Y96.33 E227.6661 F3600
G1 X138.67 Y92.8 E227.9249 F3600
G1 X139.55 E227.9707 F3600
G1 X142.2 Y95.45 E228.1648 F3600
G1 Y94.56 E228.2105 F3600
G1 X140.44 Y92.8 E228.3399 F3600
G1 X141.32 E228.3857 F3600
G1 X142.2 Y93.68 E228.4504 F3600
G1 Y92.8 E228.4962 F3600
SET_PRESSURE_ADVANCE ADVANCE=0
;layer #1
M106 S84
G1 X117.5 Y137.3 Z0.4 F12000
G1 X137.1 E229.1481 F12000
G1 Y127.7 E229.4674 F12000
G1 Y107.7 E230.1326 F6000
G1 Y98.1 E230.4519 F12000
G1 X118.5 E231.0705 F12000
G1 X116.5 E231.137 F6000
G1 X97.9 E231.7557 F12000
G1 Y117.6 E232.4042 F12000
G1 Y117.8 F6000
G1 Y137.3 E233.0528 F12000
G1 X117.5 E233.7047 F12000
G1 Y136.9 F12000
G1 X136.7 E234.3433 F12000
G1 Y127.7 E234.6493 F12000
G1 Y107.7 E235.3145 F6000
G1 Y98.5 E235.6205 F12000
G1 X118.5 E236.2258 F12000
G1 X116.5 E236.2923 F6000
G1 X98.3 E236.8977 F12000
G1 Y117.6 E237.5329 F12000
G1 Y117.8 F6000
G1 Y136.9 E238.1682 F12000
G1 X117.5 E238.8068 F12000
;layer #2
M106 S169
G1 X117.5 Y137.3 Z0.6 F12000
G1 X137.1 E239.4587 F12000
G1 Y127.7 E239.778 F12000
G1 Y107.7 E240.4432 F6000
G1 Y98.1 E240.7625 F12000
G1 X118.5 E241.3811 F12000
G1 X116.5 E241.4477 F6000
G1 X97.9 E242.0663 F12000
G1 Y117.6 E242.7149 F12000
G1 Y117.8 F6000
G1 Y137.3 E243.3634 F12000
G1 X117.5 E244.0153 F12000
G1 Y136.9 F12000
G1 X136.7 E244.6539 F12000
G1 Y127.7 E244.9599 F12000
G1 Y107.7 E245.6251 F6000
G1 Y98.5 E245.9311 F12000
G1 X118.5 E246.5365 F12000
G1 X116.5 E246.603 F6000
G1 X98.3 E247.2083 F12000
G1 Y117.6 E247.8436 F12000
G1 Y117.8 F6000
G1 Y136.9 E248.4789 F12000
G1 X117.5 E249.1174 F12000
;layer #3
M106 S254
G1 X117.5 Y137.3 Z0.8 F12000
G1 X137.1 E249.7693 F12000
G1 Y127.7 E250.0886 F12000
G1 Y107.7 E250.7538 F6000
G1 Y98.1 E251.0731 F12000
G1 X118.5 E251.6918 F12000
G1 X116.5 E251.7583 F6000
G1 X97.9 E252.3769 F12000
G1 Y117.6 E253.0255 F12000
G1 Y117.8 F6000
G1 Y137.3 E253.6741 F12000
G1 X117.5 E254.326 F12000
G1 Y136.9 F12000
G1 X136.7 E254.9646 F12000
G1 Y127.7 E255.2706 F12000
G1 Y107.7 E255.9358 F6000
G1 Y98.5 E256.2418 F12000
G1 X118.5 E256.8471 F12000
G1 X116.5 E256.9136 F6000
G1 X98.3 E257.519 F12000
G1 Y117.6 E258.1542 F12000
G1 Y117.8 F6000
G1 Y136.9 E258.7895 F12000
G1 X117.5 E259.4281 F12000
;layer #4
G1 X117.5 Y137.3 Z1 F12000
G1 X137.1 E260.08 F12000
G1 Y127.7 E260.3993 F12000
G1 Y107.7 E261.0645 F6000
G1 Y98.1 E261.3838 F12000
G1 X118.5 E262.0024 F12000
G1 X116.5 E262.0689 F6000
G1 X97.9 E262.6876 F12000
G1 Y117.6 E263.3362 F12000
G1 Y117.8 F6000
G1 Y137.3 E263.9847 F12000
G1 X117.5 E264.6366 F12000
G1 Y136.9 F12000
G1 X136.7 E265.2752 F12000
G1 Y127.7 E265.5812 F12000
G1 Y107.7 E266.2464 F6000
G1 Y98.5 E266.5524 F12000
G1 X118.5 E267.1577 F12000
G1 X116.5 E267.2243 F6000
G1 X98.3 E267.8296 F12000
G1 Y117.6 E268.4649 F12000
G1 Y117.8 F6000
G1 Y136.9 E269.1001 F12000
G1 X117.5 E269.7387 F12000
;layer #5
G1 X117.5 Y137.3 Z1.2 F12000
G1 X137.1 E270.3906 F12000
G1 Y127.7 E270.7099 F12000
G1 Y107.7 E271.3751 F6000
G1 Y98.1 E271.6944 F12000
G1 X118.5 E272.3131 F12000
G1 X116.5 E272.3796 F6000
G1 X97.9 E272.9982 F12000
G1 Y117.6 E273.6468 F12000
G1 Y117.8 F6000
G1 Y137.3 E274.2954 F12000
G1 X117.5 E274.9473 F12000
G1 Y136.9 F12000
G1 X136.7 E275.5859 F12000
G1 Y127.7 E275.8919 F12000
G1 Y107.7 E276.5571 F6000
G1 Y98.5 E276.8631 F12000
G1 X118.5 E277.4684 F12000
G1 X116.5 E277.5349 F6000
G1 X98.3 E278.1402 F12000
G1 Y117.6 E278.7755 F12000
G1 Y117.8 F6000
G1 Y136.9 E279.4108 F12000
G1 X117.5 E280.0494 F12000
;layer #6
G1 X117.5 Y137.3 Z1.4 F12000
G1 X137.1 E280.7013 F12000
G1 Y127.7 E281.0206 F12000
G1 Y107.7 E281.6858 F6000
G1 Y98.1 E282.0051 F12000
G1 X118.5 E282.6237 F12000
G1 X116.5 E282.6902 F6000
G1 X97.9 E283.3089 F12000
G1 Y117.6 E283.9574 F12000
G1 Y117.8 F6000
G1 Y137.3 E284.606 F12000
G1 X117.5 E285.2579 F12000
G1 Y136.9 F12000
G1 X136.7 E285.8965 F12000
G1 Y127.7 E286.2025 F12000
G1 Y107.7 E286.8677 F6000
G1 Y98.5 E287.1737 F12000
G1 X118.5 E287.779 F12000
G1 X116.5 E287.8455 F6000
G1 X98.3 E288.4509 F12000
G1 Y117.6 E289.0862 F12000
G1 Y117.8 F6000
G1 Y136.9 E289.7214 F12000
G1 X117.5 E290.36 F12000
;layer #7
G1 X117.5 Y137.3 Z1.6 F12000
G1 X137.1 E291.0119 F12000
G1 Y127.7 E291.3312 F12000
G1 Y107.7 E291.9964 F6000
G1 Y98.1 E292.3157 F12000
G1 X118.5 E292.9343 F12000
G1 X116.5 E293.0009 F6000
G1 X97.9 E293.6195 F12000
G1 Y117.6 E294.2681 F12000
G1 Y117.8 F6000
G1 Y137.3 E294.9167 F12000
G1 X117.5 E295.5686 F12000
G1 Y136.9 F12000
G1 X136.7 E296.2071 F12000
G1 Y127.7 E296.5131 F12000
G1 Y107.7 E297.1783 F6000
G1 Y98.5 E297.4843 F12000
G1 X118.5 E298.0897 F12000
G1 X116.5 E298.1562 F6000
G1 X98.3 E298.7615 F12000
G1 Y117.6 E299.3968 F12000
G1 Y117.8 F6000
G1 Y136.9 E300.0321 F12000
G1 X117.5 E300.6707 F12000
;layer #8
G1 X117.5 Y137.3 Z1.8 F12000
G1 X137.1 E301.3226 F12000
G1 Y127.7 E301.6419 F12000
G1 Y107.7 E302.3071 F6000
G1 Y98.1 E302.6264 F12000
G1 X118.5 E303.245 F12000
G1 X116.5 E303.3115 F6000
G1 X97.9 E303.9301 F12000
G1 Y117.6 E304.5787 F12000
G1 Y117.8 F6000
G1 Y137.3 E305.2273 F12000
G1 X117.5 E305.8792 F12000
G1 Y136.9 F12000
G1 X136.7 E306.5178 F12000
G1 Y127.7 E306.8238 F12000
G1 Y107.7 E307.489 F6000
G1 Y98.5 E307.795 F12000
G1 X118.5 E308.4003 F12000
G1 X116.5 E308.4668 F6000
G1 X98.3 E309.0722 F12000
G1 Y117.6 E309.7074 F12000
G1 Y117.8 F6000
G1 Y136.9 E310.3427 F12000
G1 X117.5 E310.9813 F12000
;layer #9
G1 X117.5 Y137.3 Z2 F12000
G1 X137.1 E311.6332 F12000
G1 Y127.7 E311.9525 F12000
G1 Y107.7 E312.6177 F6000
G1 Y98.1 E312.937 F12000
G1 X118.5 E313.5556 F12000
G1 X116.5 E313.6222 F6000
G1 X97.9 E314.2408 F12000
G1 Y117.6 E314.8894 F12000
G1 Y117.8 F6000
G1 Y137.3 E315.5379 F12000
G1 X117.5 E316.1898 F12000
G1 Y136.9 F12000
G1 X136.7 E316.8284 F12000
G1 Y127.7 E317.1344 F12000
G1 Y107.7 E317.7996 F6000
G1 Y98.5 E318.1056 F12000
G1 X118.5 E318.711 F12000
G1 X116.5 E318.7775 F6000
G1 X98.3 E319.3828 F12000
G1 Y117.6 E320.0181 F12000
G1 Y117.8 F6000
G1 Y136.9 E320.6533 F12000
G1 X117.5 E321.2919 F12000
;layer #10
G1 X117.5 Y137.3 Z2.2 F12000
G1 X137.1 E321.9438 F12000
G1 Y127.7 E322.2631 F12000
G1 Y107.7 E322.9283 F6000
G1 Y98.1 E323.2476 F12000
G1 X118.5 E323.8663 F12000
G1 X116.5 E323.9328 F6000
G1 X97.9 E324.5514 F12000
G1 Y117.6 E325.2 F12000
G1 Y117.8 F6000
G1 Y137.3 E325.8486 F12000
G1 X117.5 E326.5005 F12000
G1 Y136.9 F12000
G1 X136.7 E327.1391 F12000
G1 Y127.7 E327.4451 F12000
G1 Y107.7 E328.1103 F6000
G1 Y98.5 E328.4163 F12000
G1 X118.5 E329.0216 F12000
G1 X116.5 E329.0881 F6000
G1 X98.3 E329.6934 F12000
G1 Y117.6 E330.3287 F12000
G1 Y117.8 F6000
G1 Y136.9 E330.964 F12000
G1 X117.5 E331.6026 F12000
;layer #11
G1 X117.5 Y137.3 Z2.4 F12000
G1 X137.1 E332.2545 F12000
G1 Y127.7 E332.5738 F12000
G1 Y107.7 E333.239 F6000
G1 Y98.1 E333.5583 F12000
G1 X118.5 E334.1769 F12000
G1 X116.5 E334.2434 F6000
G1 X97.9 E334.8621 F12000
G1 Y117.6 E335.5106 F12000
G1 Y117.8 F6000
G1 Y137.3 E336.1592 F12000
G1 X117.5 E336.8111 F12000
G1 Y136.9 F12000
G1 X136.7 E337.4497 F12000
G1 Y127.7 E337.7557 F12000
G1 Y107.7 E338.4209 F6000
G1 Y98.5 E338.7269 F12000
G1 X118.5 E339.3322 F12000
G1 X116.5 E339.3988 F6000
G1 X98.3 E340.0041 F12000
G1 Y117.6 E340.6394 F12000
G1 Y117.8 F6000
G1 Y136.9 E341.2746 F12000
G1 X117.5 E341.9132 F12000
;layer #12
G1 X117.5 Y137.3 Z2.6 F12000
G1 X137.1 E342.5651 F12000
G1 Y127.7 E342.8844 F12000
G1 Y107.7 E343.5496 F6000
G1 Y98.1 E343.8689 F12000
G1 X118.5 E344.4876 F12000
G1 X116.5 E344.5541 F6000
G1 X97.9 E345.1727 F12000
G1 Y117.6 E345.8213 F12000
G1 Y117.8 F6000
G1 Y137.3 E346.4699 F12000
G1 X117.5 E347.1218 F12000
G1 Y136.9 F12000
G1 X136.7 E347.7604 F12000
G1 Y127.7 E348.0663 F12000
G1 Y107.7 E348.7316 F6000
G1 Y98.5 E349.0375 F12000
G1 X118.5 E349.6429 F12000
G1 X116.5 E349.7094 F6000
G1 X98.3 E350.3147 F12000
G1 Y117.6 E350.95 F12000
G1 Y117.8 F6000
G1 Y136.9 E351.5853 F12000
G1 X117.5 E352.2239 F12000
;layer #13
G1 X117.5 Y137.3 Z2.8 F12000
G1 X137.1 E352.8758 F12000
G1 Y127.7 E353.1951 F12000
G1 Y107.7 E353.8603 F6000
G1 Y98.1 E354.1796 F12000
G1 X118.5 E354.7982 F12000
G1 X116.5 E354.8647 F6000
G1 X97.9 E355.4834 F12000
G1 Y117.6 E356.1319 F12000
G1 Y117.8 F6000
G1 Y137.3 E356.7805 F12000
G1 X117.5 E357.4324 F12000
G1 Y136.9 F12000
G1 X136.7 E358.071 F12000
G1 Y127.7 E358.377 F12000
G1 Y107.7 E359.0422 F6000
G1 Y98.5 E359.3482 F12000
G1 X118.5 E359.9535 F12000
G1 X116.5 E360.02 F6000
