; generated by K3D Retraction calibration towers generator v1.8
; Written by Dmitry Sorkin @ http://k3d.tech/, Kekht and YTKAB0BP
;Bedsize: 235:235 [mm]
;Firmware (0-Marlin, 1-Klipper, 2-RRF): 1
;Z-offset: 0 [mm]
;Delta: false
;G29: false
;Temp: 210/60 [°C]
;Flow: 100
;Fan: 99.6
;Line width: 0.4 [mm]
;First layer line width: 0.4 [mm]
;Layer height: 0.25 [mm]
;Print speed: 150 [mm/s]
;First layer print speed: 60 [mm/s]
;Travel speed: 250 [mm/s]
;K-Factor: 0 [s]
;Segment height: 3 [mm]
;Towers spacing: 100 [mm]
;Hardmode: false
;Сегмент 10:   0.2мм @ 30мм/с
;Сегмент 9:   0.29мм @ 30мм/с
;Сегмент 8:   0.38мм @ 30мм/с
;Сегмент 7:   0.47мм @ 30мм/с
;Сегмент 6:   0.56мм @ 30мм/с
;Сегмент 5:   0.64мм @ 30мм/с
;Сегмент 4:   0.73мм @ 30мм/с
;Сегмент 3:   0.82мм @ 30мм/с
;Сегмент 2:   0.91мм @ 30мм/с
;Сегмент 1:   1мм @ 30мм/с
M104 S150 ;прогреть хотэнд до 150 градусов
M190 S60 ;прогреть стол до температуры, указанной в настройках
M109 S210 ;прогреть хотэнд до температуры, указанной в настройках
G28 ;припарковать все оси
 ;снять карту высот стола
G90 ;абсолютная система координат
G92 E0 ;сбросить координату экструдера
M220 S100 ;Множитель скорости 100%
M221 S100 ;Множитель потока взять из настроек
M82
M106 S84
G1 Z0.25 F450
G92 Z0.25
G1 E-1 F1800
G1 X52.5 Y92.5 F15000
G1 E0 F1800
G1 X182.5 E8.1072 F3600
G1 Y93.1 F3600
G1 X52.5 E16.2143 F3600
G1 E15.21 F1800
G1 X52.8 Y132.2 F15000
G1 E16.21 F1800
G1 Y131.28 E16.2764 F3600
G1 X53.72 Y132.2 E16.3641 F3600
G1 X54.64 E16.4261 F3600
G1 X52.8 Y130.36 E16.6016 F3600
G1 Y129.44 E16.6636 F3600
G1 X55.56 Y132.2 E16.9268 F3600
G1 X56.47 E16.9889 F3600
G1 X52.8 Y128.53 E17.3398 F3600
G1 Y127.61 E17.4018 F3600
G1 X57.39 Y132.2 E17.8405 F3600
G1 X58.31 E17.9026 F3600
G1 X52.8 Y126.69 E18.429 F3600
G1 Y125.77 E18.491 F3600
G1 X59.23 Y132.2 E19.1051 F3600
G1 X60.15 E19.1672 F3600
G1 X52.8 Y124.85 E19.869 F3600
G1 Y123.93 E19.9311 F3600
G1 X61.07 Y132.2 E20.7207 F3600
G1 X61.99 E20.7827 F3600
G1 X52.8 Y123.01 E21.6601 F3600
G1 Y122.09 E21.7221 F3600
G1 X62.91 Y132.2 E22.6872 F3600
G1 X63.83 E22.7492 F3600
G1 X52.8 Y121.18 E23.802 F3600
G1 Y120.26 E23.8641 F3600
G1 X64.74 Y132.2 E25.0046 F3600
G1 X65.66 E25.0666 F3600
G1 X52.8 Y119.34 E26.2949 F3600
G1 Y118.42 E26.357 F3600
G1 X66.58 Y132.2 E27.673 F3600
G1 X67.5 E27.735 F3600
G1 X52.8 Y117.5 E29.1388 F3600
G1 Y116.58 E29.2008 F3600
G1 X68.42 Y132.2 E30.6923 F3600
G1 X69.34 E30.7543 F3600
G1 X52.8 Y115.66 E32.3335 F3600
G1 Y114.74 E32.3956 F3600
G1 X70.26 Y132.2 E34.0625 F3600
G1 X71.18 E34.1246 F3600
G1 X52.8 Y113.82 E35.8792 F3600
G1 Y112.91 E35.9413 F3600
G1 X72.09 Y132.2 E37.7837 F3600
G1 X73.01 E37.8457 F3600
G1 X52.8 Y111.99 E39.7759 F3600
G1 Y111.07 E39.8379 F3600
G1 X73.93 Y132.2 E41.8558 F3600
G1 X74.85 E41.9178 F3600
G1 X52.8 Y110.15 E44.0235 F3600
G1 Y109.23 E44.0855 F3600
G1 X75.77 Y132.2 E46.2789 F3600
G1 X76.69 E46.3409 F3600
G1 X52.8 Y108.31 E48.622 F3600
G1 Y107.39 E48.684 F3600
G1 X77.61 Y132.2 E51.0528 F3600
G1 X78.52 E51.1149 F3600
G1 X52.8 Y106.48 E53.5714 F3600
G1 Y105.56 E53.6335 F3600
G1 X79.44 Y132.2 E56.1778 F3600
G1 X80.36 E56.2398 F3600
G1 X52.8 Y104.64 E58.8718 F3600
G1 Y103.72 E58.9339 F3600
G1 X81.28 Y132.2 E61.6536 F3600
G1 X82.2 E61.7157 F3600
G1 X52.8 Y102.8 E64.5232 F3600
G1 X53.72 E64.5852 F3600
G1 X82.2 Y131.28 E67.3049 F3600
G1 Y130.36 E67.367 F3600
G1 X54.64 Y102.8 E69.999 F3600
G1 X55.56 E70.061 F3600
G1 X82.2 Y129.44 E72.6053 F3600
G1 Y128.52 E72.6674 F3600
G1 X56.48 Y102.8 E75.1239 F3600
G1 X57.39 E75.186 F3600
G1 X82.2 Y127.61 E77.5548 F3600
G1 Y126.69 E77.6168 F3600
G1 X58.31 Y102.8 E79.8979 F3600
G1 X59.23 E79.96 F3600
G1 X82.2 Y125.77 E82.1533 F3600
G1 Y124.85 E82.2153 F3600
G1 X60.15 Y102.8 E84.321 F3600
G1 X61.07 E84.383 F3600
G1 X82.2 Y123.93 E86.4009 F3600
G1 Y123.01 E86.4629 F3600
G1 X61.99 Y102.8 E88.3931 F3600
G1 X62.91 E88.4551 F3600
G1 X82.2 Y122.09 E90.2975 F3600
G1 Y121.17 E90.3596 F3600
G1 X63.83 Y102.8 E92.1143 F3600
G1 X64.74 E92.1763 F3600
G1 X82.2 Y120.26 E93.8432 F3600
G1 Y119.34 E93.9053 F3600
G1 X65.66 Y102.8 E95.4845 F3600
G1 X66.58 E95.5465 F3600
G1 X82.2 Y118.42 E97.038 F3600
G1 Y117.5 E97.1 F3600
G1 X67.5 Y102.8 E98.5038 F3600
G1 X68.42 E98.5658 F3600
G1 X82.2 Y116.58 E99.8818 F3600
G1 Y115.66 E99.9439 F3600
G1 X69.34 Y102.8 E101.1722 F3600
G1 X70.26 E101.2342 F3600
G1 X82.2 Y114.74 E102.3747 F3600
G1 Y113.82 E102.4368 F3600
G1 X71.18 Y102.8 E103.4896 F3600
G1 X72.09 E103.5516 F3600
G1 X82.2 Y112.91 E104.5167 F3600
G1 Y111.99 E104.5787 F3600
G1 X73.01 Y102.8 E105.4561 F3600
G1 X73.93 E105.5181 F3600
G1 X82.2 Y111.07 E106.3077 F3600
G1 Y110.15 E106.3698 F3600
G1 X74.85 Y102.8 E107.0716 F3600
G1 X75.77 E107.1337 F3600
G1 X82.2 Y109.23 E107.7478 F3600
G1 Y108.31 E107.8099 F3600
G1 X76.69 Y102.8 E108.3363 F3600
G1 X77.61 E108.3983 F3600
G1 X82.2 Y107.39 E108.837 F3600
G1 Y106.48 E108.899 F3600
G1 X78.53 Y102.8 E109.2499 F3600
G1 X79.44 E109.312 F3600
G1 X82.2 Y105.56 E109.5752 F3600
G1 Y104.64 E109.6372 F3600
G1 X80.36 Y102.8 E109.8127 F3600
G1 X81.28 E109.8747 F3600
G1 X82.2 Y103.72 E109.9625 F3600
G1 Y102.8 E110.0245 F3600
G1 E109.02 F1800
G1 X152.8 Y132.2 F15000
G1 E110.02 F1800
G1 Y131.28 E110.0865 F3600
G1 X153.72 Y132.2 E110.1743 F3600
G1 X154.64 E110.2363 F3600
G1 X152.8 Y130.36 E110.4118 F3600
G1 Y129.44 E110.4738 F3600
G1 X155.56 Y132.2 E110.737 F3600
G1 X156.48 E110.799 F3600
G1 X152.8 Y128.53 E111.15 F3600
G1 Y127.61 E111.212 F3600
G1 X157.39 Y132.2 E111.6507 F3600
G1 X158.31 E111.7127 F3600
G1 X152.8 Y126.69 E112.2391 F3600
G1 Y125.77 E112.3012 F3600
G1 X159.23 Y132.2 E112.9153 F3600
G1 X160.15 E112.9773 F3600
G1 X152.8 Y124.85 E113.6792 F3600
G1 Y123.93 E113.7413 F3600
G1 X161.07 Y132.2 E114.5309 F3600
G1 X161.99 E114.5929 F3600
G1 X152.8 Y123.01 E115.4702 F3600
G1 Y122.09 E115.5323 F3600
G1 X162.91 Y132.2 E116.4974 F3600
G1 X163.82 E116.5594 F3600
G1 X152.8 Y121.18 E117.6122 F3600
G1 Y120.26 E117.6742 F3600
G1 X164.74 Y132.2 E118.8148 F3600
G1 X165.66 E118.8768 F3600
G1 X152.8 Y119.34 E120.1051 F3600
G1 Y118.42 E120.1671 F3600
G1 X166.58 Y132.2 E121.4832 F3600
G1 X167.5 E121.5452 F3600
G1 X152.8 Y117.5 E122.9489 F3600
G1 Y116.58 E123.011 F3600
G1 X168.42 Y132.2 E124.5025 F3600
G1 X169.34 E124.5645 F3600
G1 X152.8 Y115.66 E126.1437 F3600
G1 Y114.74 E126.2057 F3600
G1 X170.26 Y132.2 E127.8727 F3600
G1 X171.18 E127.9347 F3600
G1 X152.8 Y113.82 E129.6894 F3600
G1 Y112.91 E129.7515 F3600
G1 X172.09 Y132.2 E131.5939 F3600
G1 X173.01 E131.6559 F3600
G1 X152.8 Y111.99 E133.5861 F3600
G1 Y111.07 E133.6481 F3600
G1 X173.93 Y132.2 E135.666 F3600
G1 X174.85 E135.728 F3600
G1 X152.8 Y110.15 E137.8336 F3600
G1 Y109.23 E137.8957 F3600
G1 X175.77 Y132.2 E140.089 F3600
G1 X176.69 E140.1511 F3600
G1 X152.8 Y108.31 E142.4322 F3600
G1 Y107.39 E142.4942 F3600
G1 X177.61 Y132.2 E144.863 F3600
G1 X178.52 E144.9251 F3600
G1 X152.8 Y106.48 E147.3816 F3600
G1 Y105.56 E147.4436 F3600
G1 X179.44 Y132.2 E149.9879 F3600
G1 X180.36 E150.05 F3600
G1 X152.8 Y104.64 E152.682 F3600
G1 Y103.72 E152.744 F3600
G1 X181.28 Y132.2 E155.4638 F3600
G1 X182.2 E155.5258 F3600
G1 X152.8 Y102.8 E158.3333 F3600
G1 X153.72 E158.3954 F3600
G1 X182.2 Y131.28 E161.1151 F3600
G1 Y130.36 E161.1772 F3600
G1 X154.64 Y102.8 E163.8092 F3600
G1 X155.56 E163.8712 F3600
G1 X182.2 Y129.44 E166.4155 F3600
G1 Y128.52 E166.4776 F3600
G1 X156.48 Y102.8 E168.9341 F3600
G1 X157.39 E168.9961 F3600
G1 X182.2 Y127.61 E171.365 F3600
G1 Y126.69 E171.427 F3600
G1 X158.31 Y102.8 E173.7081 F3600
G1 X159.23 E173.7701 F3600
G1 X182.2 Y125.77 E175.9635 F3600
G1 Y124.85 E176.0255 F3600
G1 X160.15 Y102.8 E178.1311 F3600
G1 X161.07 E178.1932 F3600
G1 X182.2 Y123.93 E180.2111 F3600
G1 Y123.01 E180.2731 F3600
G1 X161.99 Y102.8 E182.2033 F3600
G1 X162.91 E182.2653 F3600
G1 X182.2 Y122.09 E184.1077 F3600
G1 Y121.17 E184.1697 F3600
G1 X163.82 Y102.8 E185.9244 F3600
G1 X164.74 E185.9865 F3600
G1 X182.2 Y120.26 E187.6534 F3600
G1 Y119.34 E187.7155 F3600
G1 X165.66 Y102.8 E189.2947 F3600
G1 X166.58 E189.3567 F3600
G1 X182.2 Y118.42 E190.8482 F3600
G1 Y117.5 E190.9102 F3600
G1 X167.5 Y102.8 E192.314 F3600
G1 X168.42 E192.376 F3600
G1 X182.2 Y116.58 E193.692 F3600
G1 Y115.66 E193.7541 F3600
G1 X169.34 Y102.8 E194.9823 F3600
G1 X170.26 E195.0444 F3600
G1 X182.2 Y114.74 E196.1849 F3600
G1 Y113.82 E196.247 F3600
G1 X171.18 Y102.8 E197.2998 F3600
G1 X172.09 E197.3618 F3600
G1 X182.2 Y112.91 E198.3269 F3600
G1 Y111.99 E198.3889 F3600
G1 X173.01 Y102.8 E199.2663 F3600
G1 X173.93 E199.3283 F3600
G1 X182.2 Y111.07 E200.1179 F3600
G1 Y110.15 E200.1799 F3600
G1 X174.85 Y102.8 E200.8818 F3600
G1 X175.77 E200.9439 F3600
G1 X182.2 Y109.23 E201.558 F3600
G1 Y108.31 E201.62 F3600
G1 X176.69 Y102.8 E202.1464 F3600
G1 X177.61 E202.2085 F3600
G1 X182.2 Y107.39 E202.6471 F3600
G1 Y106.48 E202.7092 F3600
G1 X178.53 Y102.8 E203.0601 F3600
G1 X179.44 E203.1222 F3600
G1 X182.2 Y105.56 E203.3854 F3600
G1 Y104.64 E203.4474 F3600
G1 X180.36 Y102.8 E203.6229 F3600
G1 X181.28 E203.6849 F3600
G1 X182.2 Y103.72 E203.7726 F3600
G1 Y102.8 E203.8347 F3600
;layer #2
M106 S169
G1 E202.83 F1800
G1 X160.46 Y110.46 F15000
G1 E203.83 F1800
G1 Z0.5 F300
G1 Y124.54 E204.42 F9000
G1 X174.54 E205.0054
G1 Y110.46 E205.5908
G1 X160.46 E206.1762
G1 X160.1 Y110.1
G1 Y124.9 E206.7915
G1 X174.9 E207.4068
G1 Y110.1 E208.0221
G1 X160.1 E208.6374
G1 E207.64 F1800
G1 X74.54 Y110.46 F15000
G1 E208.64 F1800
G1 X60.46 E209.2228 F9000
G1 Y124.54 E209.8082
G1 X74.54 E210.3936
G1 Y110.46 E210.9789
G1 X74.9 Y110.1
G1 X60.1 E211.5943
G1 Y124.9 E212.2096
G1 X74.9 E212.8249
G1 Y110.1 E213.4402
;layer #3
M106 S254
G1 E212.44 F1800
G1 X74.54 Y110.46 F15000
G1 E213.44 F1800
G1 Z0.75 F300
G1 X60.46 E214.0256 F9000
G1 Y124.54 E214.611
G1 X74.54 E215.1963
G1 Y110.46 E215.7817
G1 X74.9 Y110.1
G1 X60.1 E216.397
G1 Y124.9 E217.0123
G1 X74.9 E217.6276
G1 Y110.1 E218.243
G1 E217.24 F1800
G1 X160.46 Y110.46 F15000
G1 E218.24 F1800
G1 Y124.54 E218.8283 F9000
G1 X174.54 E219.4137
G1 Y110.46 E219.9991
G1 X160.46 E220.5845
G1 X160.1 Y110.1
G1 Y124.9 E221.1998
G1 X174.9 E221.8151
G1 Y110.1 E222.4304
G1 X160.1 E223.0457
;layer #4
G1 E222.05 F1800
G1 X160.46 Y110.46 F15000
G1 E223.05 F1800
G1 Z1 F300
G1 Y124.54 E223.6311 F9000
G1 X174.54 E224.2165
G1 Y110.46 E224.8019
G1 X160.46 E225.3872
G1 X160.1 Y110.1
G1 Y124.9 E226.0026
G1 X174.9 E226.6179
G1 Y110.1 E227.2332
G1 X160.1 E227.8485
G1 E226.85 F1800
G1 X74.54 Y110.46 F15000
G1 E227.85 F1800
G1 X60.46 E228.4339 F9000
G1 Y124.54 E229.0192
G1 X74.54 E229.6046
G1 Y110.46 E230.19
G1 X74.9 Y110.1
G1 X60.1 E230.8053
G1 Y124.9 E231.4206
G1 X74.9 E232.0359
G1 Y110.1 E232.6513
;layer #5
G1 E231.65 F1800
G1 X74.54 Y110.46 F15000
G1 E232.65 F1800
G1 Z1.25 F300
G1 X60.46 E233.2366 F9000
G1 Y124.54 E233.822
G1 X74.54 E234.4074
G1 Y110.46 E234.9928
G1 X74.9 Y110.1
G1 X60.1 E235.6081
G1 Y124.9 E236.2234
G1 X74.9 E236.8387
G1 Y110.1 E237.454
G1 E236.45 F1800
G1 X160.46 Y110.46 F15000
G1 E237.45 F1800
G1 Y124.54 E238.0394 F9000
G1 X174.54 E238.6248
G1 Y110.46 E239.2101
G1 X160.46 E239.7955
G1 X160.1 Y110.1
G1 Y124.9 E240.4108
G1 X174.9 E241.0262
G1 Y110.1 E241.6415
G1 X160.1 E242.2568
;layer #6
G1 E241.26 F1800
G1 X160.46 Y110.46 F15000
G1 E242.26 F1800
G1 Z1.5 F300
G1 Y124.54 E242.8422 F9000
G1 X174.54 E243.4275
G1 Y110.46 E244.0129
G1 X160.46 E244.5983
G1 X160.1 Y110.1
G1 Y124.9 E245.2136
G1 X174.9 E245.8289
G1 Y110.1 E246.4442
G1 X160.1 E247.0595
G1 E246.06 F1800
G1 X74.54 Y110.46 F15000
G1 E247.06 F1800
G1 X60.46 E247.6449 F9000
G1 Y124.54 E248.2303
G1 X74.54 E248.8157
G1 Y110.46 E249.4011
G1 X74.9 Y110.1
G1 X60.1 E250.0164
G1 Y124.9 E250.6317
G1 X74.9 E251.247
G1 Y110.1 E251.8623
;layer #7
G1 E250.86 F1800
G1 X74.54 Y110.46 F15000
G1 E251.86 F1800
G1 Z1.75 F300
G1 X60.46 E252.4477 F9000
G1 Y124.54 E253.0331
G1 X74.54 E253.6184
G1 Y110.46 E254.2038
G1 X74.9 Y110.1
G1 X60.1 E254.8191
G1 Y124.9 E255.4344
G1 X74.9 E256.0498
G1 Y110.1 E256.6651
G1 E255.67 F1800
G1 X160.46 Y110.46 F15000
G1 E256.67 F1800
G1 Y124.54 E257.2504 F9000
G1 X174.54 E257.8358
G1 Y110.46 E258.4212
G1 X160.46 E259.0066
G1 X160.1 Y110.1
G1 Y124.9 E259.6219
G1 X174.9 E260.2372
G1 Y110.1 E260.8525
G1 X160.1 E261.4678
;layer #8
G1 E260.47 F1800
G1 X160.46 Y110.46 F15000
G1 E261.47 F1800
G1 Z2 F300
G1 Y124.54 E262.0532 F9000
G1 X174.54 E262.6386
G1 Y110.46 E263.224
G1 X160.46 E263.8093
G1 X160.1 Y110.1
G1 Y124.9 E264.4247
G1 X174.9 E265.04
G1 Y110.1 E265.6553
G1 X160.1 E266.2706
G1 E265.27 F1800
G1 X74.54 Y110.46 F15000
G1 E266.27 F1800
G1 X60.46 E266.856 F9000
G1 Y124.54 E267.4414
G1 X74.54 E268.0267
G1 Y110.46 E268.6121
G1 X74.9 Y110.1
G1 X60.1 E269.2274
G1 Y124.9 E269.8427
G1 X74.9 E270.458
G1 Y110.1 E271.0734
;layer #9
G1 E270.07 F1800
G1 X74.54 Y110.46 F15000
G1 E271.07 F1800
G1 Z2.25 F300
G1 X60.46 E271.6587 F9000
G1 Y124.54 E272.2441
G1 X74.54 E272.8295
G1 Y110.46 E273.4149
G1 X74.9 Y110.1
G1 X60.1 E274.0302
G1 Y124.9 E274.6455
G1 X74.9 E275.2608
G1 Y110.1 E275.8761
G1 E274.88 F1800
G1 X160.46 Y110.46 F15000
G1 E275.88 F1800
G1 Y124.54 E276.4615 F9000
G1 X174.54 E277.0469
G1 Y110.46 E277.6323
G1 X160.46 E278.2176
G1 X160.1 Y110.1
G1 Y124.9 E278.8329
G1 X174.9 E279.4483
G1 Y110.1 E280.0636
G1 X160.1 E280.6789
;layer #10
G1 E279.68 F1800
G1 X160.46 Y110.46 F15000
G1 E280.68 F1800
G1 Z2.5 F300
G1 Y124.54 E281.2643 F9000
G1 X174.54 E281.8496
G1 Y110.46 E282.435
G1 X160.46 E283.0204
G1 X160.1 Y110.1
G1 Y124.9 E283.6357
G1 X174.9 E284.251
G1 Y110.1 E284.8663
G1 X160.1 E285.4816
G1 E284.48 F1800
G1 X74.54 Y110.46 F15000
G1 E285.48 F1800
G1 X60.46 E286.067 F9000
G1 Y124.54 E286.6524
G1 X74.54 E287.2378
G1 Y110.46 E287.8232
G1 X74.9 Y110.1
G1 X60.1 E288.4385
G1 Y124.9 E289.0538
G1 X74.9 E289.6691
G1 Y110.1 E290.2844
;layer #11
G1 E289.28 F1800
G1 X74.54 Y110.46 F15000
G1 E290.28 F1800
G1 Z2.75 F300
G1 X60.46 E290.8698 F9000
G1 Y124.54 E291.4552
G1 X74.54 E292.0405
G1 Y110.46 E292.6259
G1 X74.9 Y110.1
G1 X60.1 E293.2412
G1 Y124.9 E293.8566
G1 X74.9 E294.4719
G1 Y110.1 E295.0872
G1 E294.09 F1800
G1 X160.46 Y110.46 F15000
G1 E295.09 F1800
G1 Y124.54 E295.6726 F9000
G1 X174.54 E296.2579
G1 Y110.46 E296.8433
G1 X160.46 E297.4287
G1 X160.1 Y110.1
G1 Y124.9 E298.044
G1 X174.9 E298.6593
G1 Y110.1 E299.2746
G1 X160.1 E299.8899
;layer #12
G1 E298.89 F1800
G1 X160.46 Y110.46 F15000
G1 E299.89 F1800
G1 Z3 F300
G1 Y124.54 E300.4753 F9000
G1 X174.54 E301.0607
G1 Y110.46 E301.6461
G1 X160.46 E302.2315
G1 X160.1 Y110.1
G1 Y124.9 E302.8468
G1 X174.9 E303.4621
G1 Y110.1 E304.0774
G1 X160.1 E304.6927
G1 E303.69 F1800
G1 X74.54 Y110.46 F15000
G1 E304.69 F1800
G1 X60.46 E305.2781 F9000
G1 Y124.54 E305.8635
G1 X74.54 E306.4488
G1 Y110.46 E307.0342
G1 X74.9 Y110.1
G1 X60.1 E307.6495
G1 Y124.9 E308.2648
G1 X74.9 E308.8802
G1 Y110.1 E309.4955
;layer #13
G1 E308.58 F1800
G1 X74.64 Y110.36 F15000
G1 E309.5 F1800
G1 Z3.25 F300
G1 X60.36 E310.0892 F9000
G1 Y124.64 E310.6829
G1 X74.64 E311.2765
G1 Y110.36 E311.8702
G1 X75 Y110
G1 X60 E312.4939
G1 Y125 E313.1175
G1 X75 E313.7411
G1 Y110 E314.3648
G1 E313.45 F1800
G1 X160.36 Y110.36 F15000
G1 E314.36 F1800
G1 Y124.64 E314.9584 F9000
G1 X174.64 E315.5521
G1 Y110.36 E316.1458
G1 X160.36 E316.7395
G1 X160 Y110
G1 Y125 E317.3632
G1 X175 E317.9868
G1 Y110 E318.6104
G1 X160 E319.234
;layer #14
G1 E318.32 F1800
G1 X160.46 Y110.46 F15000
G1 E319.23 F1800
G1 Z3.5 F300
G1 Y124.54 E319.8194 F9000
G1 X174.54 E320.4048
G1 Y110.46 E320.9902
G1 X160.46 E321.5755
G1 X160.1 Y110.1
G1 Y124.9 E322.1909
G1 X174.9 E322.8062
G1 Y110.1 E323.4215
G1 X160.1 E324.0368
G1 E323.13 F1800
G1 X74.54 Y110.46 F15000
G1 E324.04 F1800
G1 X60.46 E324.6222 F9000
G1 Y124.54 E325.2076
G1 X74.54 E325.7929
G1 Y110.46 E326.3783
G1 X74.9 Y110.1
G1 X60.1 E326.9936
G1 Y124.9 E327.6089
G1 X74.9 E328.2242
G1 Y110.1 E328.8396
;layer #15
G1 E327.93 F1800
G1 X74.54 Y110.46 F15000
G1 E328.84 F1800
G1 Z3.75 F300
G1 X60.46 E329.4249 F9000
G1 Y124.54 E330.0103
G1 X74.54 E330.5957
G1 Y110.46 E331.1811
G1 X74.9 Y110.1
G1 X60.1 E331.7964
G1 Y124.9 E332.4117
G1 X74.9 E333.027
G1 Y110.1 E333.6423
G1 E332.73 F1800
G1 X160.46 Y110.46 F15000
G1 E333.64 F1800
G1 Y124.54 E334.2277 F9000
G1 X174.54 E334.8131
G1 Y110.46 E335.3985
G1 X160.46 E335.9838
